app/src/main/assets/luts/Kodak_2383_Teal_Orange.cube
TITLE "Kodak 2383 Teal & Orange"
LUT_3D_SIZE 9
DOMAIN_MIN 0.0 0.0 0.0
DOMAIN_MAX 1.0 1.0 1.0
0.083173 0.083173 0.138955
0.138238 0.083173 0.135332
0.220974 0.083173 0.131789
0.334033 0.083173 0.128326
0.470036 0.083173 0.124940
0.610639 0.083173 0.121631
0.734973 0.083173 0.118398
0.830616 0.083173 0.115240
0.896600 0.083173 0.112155
0.083173 0.130467 0.127084
0.138238 0.131047 0.123727
0.220974 0.131629 0.120446
0.334033 0.132213 0.117240
0.470036 0.132800 0.114108
0.610639 0.133389 0.111050
0.734973 0.133980 0.108064
0.830616 0.134573 0.105148
0.896600 0.135168 0.102302
0.083173 0.214557 0.116091
0.138238 0.215418 0.112986
0.220974 0.216282 0.109954
0.334033 0.217148 0.106994
0.470036 0.218017 0.104104
0.610639 0.218888 0.101283
0.734973 0.219762 0.098530
0.830616 0.220638 0.095844
0.896600 0.221516 0.093224
0.083173 0.332144 0.105934
0.138238 0.333276 0.103069
0.220974 0.334411 0.100273
0.334033 0.335548 0.097545
0.470036 0.336686 0.094883
0.610639 0.337827 0.092286
0.734973 0.338969 0.089753
0.830616 0.340113 0.087283
0.896600 0.341260 0.084875
0.083173 0.475185 0.096568
0.138238 0.476458 0.093930
0.220974 0.477731 0.091356
0.334033 0.479004 0.088847
0.470036 0.480277 0.086399
0.610639 0.481551 0.084013
0.738149 0.483234 0.083173
0.836427 0.485145 0.083173
0.902682 0.487057 0.083173
0.083173 0.622418 0.087949
0.138238 0.623616 0.085524
0.220999 0.624817 0.083173
0.339764 0.626609 0.083173
0.482799 0.628398 0.083173
0.628708 0.630183 0.083173
0.754395 0.631965 0.083173
0.847833 0.633744 0.083173
0.909966 0.635518 0.083173
0.085876 0.750725 0.083173
0.145599 0.752155 0.083173
0.236127 0.753579 0.083173
0.359273 0.754997 0.083173
0.504248 0.756410 0.083173
0.648512 0.757818 0.083173
0.769948 0.759219 0.083173
0.858578 0.760616 0.083173
0.916754 0.762007 0.083173
0.092858 0.846866 0.083173
0.156604 0.847856 0.083173
0.251956 0.848841 0.083173
0.379259 0.849820 0.083173
0.525681 0.850794 0.083173
0.667817 0.851763 0.083173
0.784796 0.852727 0.083173
0.868682 0.853686 0.083173
0.916827 0.854639 0.083173
0.100344 0.910355 0.083173
0.168276 0.910978 0.083173
0.268473 0.911596 0.083173
0.399662 0.912211 0.083173
0.547021 0.912822 0.083173
0.686574 0.913429 0.083173
0.798937 0.914033 0.083173
0.878166 0.914632 0.083173
0.916827 0.915228 0.083173
0.083173 0.083173 0.225413
0.138238 0.083173 0.220112
0.220974 0.083173 0.214902
0.334033 0.083173 0.209782
0.470036 0.083173 0.204752
0.610639 0.083173 0.199812
0.734973 0.083173 0.194962
0.830616 0.083173 0.190202
0.896600 0.083173 0.185531
0.083173 0.130664 0.207940
0.138238 0.131244 0.202943
0.220974 0.131827 0.198036
0.334033 0.132412 0.193219
0.470036 0.133000 0.188491
0.610639 0.133589 0.183853
0.734973 0.134181 0.179304
0.830616 0.134775 0.174843
0.896600 0.135371 0.170470
0.083173 0.214850 0.191487
0.138238 0.215711 0.186792
0.220974 0.216576 0.182187
0.334033 0.217443 0.177669
0.470036 0.218312 0.173241
0.610639 0.219184 0.168900
0.734973 0.220059 0.164646
0.830616 0.220936 0.160478
0.896600 0.221815 0.156396
0.083173 0.332528 0.176047
0.138238 0.333662 0.171650
0.220974 0.334797 0.167341
0.334033 0.335934 0.163118
0.470036 0.337073 0.158982
0.610639 0.338215 0.154931
0.734973 0.339358 0.150965
0.830616 0.340502 0.147083
0.896600 0.341649 0.143284
0.083173 0.475617 0.161603
0.138238 0.476890 0.157498
0.220974 0.478163 0.153478
0.334033 0.479436 0.149542
0.470036 0.480710 0.145690
0.610639 0.481984 0.141921
0.739820 0.483883 0.139431
0.837609 0.485795 0.137000
0.903441 0.487707 0.134605
0.083173 0.622825 0.148130
0.138238 0.624023 0.144309
0.222494 0.625426 0.140995
0.341711 0.627217 0.138542
0.484963 0.629005 0.136124
0.630729 0.630789 0.133741
0.755997 0.632570 0.131395
0.848947 0.634347 0.129083
0.910673 0.636120 0.126805
0.086559 0.751211 0.137657
0.146680 0.752639 0.135252
0.237693 0.754061 0.132883
0.361270 0.755478 0.130549
0.506414 0.756889 0.128250
0.650484 0.758294 0.125985
0.771479 0.759694 0.123755
0.859627 0.761089 0.121559
0.916827 0.762478 0.119396
0.093590 0.847203 0.129708
0.157751 0.848191 0.127421
0.253592 0.849174 0.125169
0.381300 0.850152 0.122951
0.527841 0.851124 0.120767
0.669736 0.852091 0.118617
0.786256 0.853053 0.116500
0.869667 0.854010 0.114415
0.916827 0.854962 0.112364
0.101129 0.910567 0.122152
0.169492 0.911188 0.119981
0.270178 0.911806 0.117842
0.401743 0.912419 0.115737
0.549167 0.913029 0.113665
0.688436 0.913635 0.111625
0.800325 0.914237 0.109617
0.879090 0.914835 0.107641
0.916827 0.915429 0.105696
0.083173 0.083173 0.344164
0.138238 0.083173 0.337287
0.220974 0.083173 0.330478
0.334033 0.083173 0.323740
0.470036 0.083173 0.317074
0.610639 0.083173 0.310482
0.734973 0.083173 0.303967
0.830616 0.083173 0.297529
0.896600 0.083173 0.291170
0.083173 0.130861 0.321305
0.138238 0.131442 0.314666
0.220974 0.132026 0.308101
0.334033 0.132612 0.301614
0.470036 0.133200 0.295204
0.610639 0.133790 0.288875
0.734973 0.134382 0.282627
0.830616 0.134977 0.276461
0.896600 0.135574 0.270380
0.083173 0.215142 0.299271
0.138238 0.216005 0.292891
0.220974 0.216870 0.286591
0.334033 0.217738 0.280373
0.470036 0.218608 0.274237
0.610639 0.219481 0.268186
0.734973 0.220356 0.262221
0.830616 0.221234 0.256341
0.896600 0.222115 0.250549
0.083173 0.332913 0.278129
0.138238 0.334047 0.272025
0.220974 0.335183 0.266005
0.334033 0.336321 0.260070
0.470036 0.337461 0.254222
0.610639 0.338603 0.248462
0.734973 0.339746 0.242790
0.830616 0.340892 0.237206
0.896600 0.342039 0.231711
0.083173 0.476050 0.257931
0.138238 0.477322 0.252115
0.220974 0.478595 0.246387
0.334033 0.479869 0.240746
0.470036 0.481143 0.235195
0.612583 0.482621 0.230313
0.741484 0.484532 0.226715
0.838784 0.486444 0.223156
0.904194 0.488356 0.219638
0.083173 0.623232 0.238715
0.138238 0.624429 0.233196
0.223996 0.626034 0.228998
0.343662 0.627825 0.225414
0.487127 0.629611 0.221871
0.632744 0.631394 0.218367
0.757591 0.633174 0.214904
0.850055 0.634949 0.211480
0.911375 0.636722 0.208097
0.087247 0.751697 0.224120
0.147768 0.753122 0.220591
0.239267 0.754543 0.217102
0.363272 0.755957 0.213653
0.508579 0.757367 0.210244
0.652451 0.758770 0.206875
0.773003 0.760168 0.203546
0.860669 0.761561 0.200258
0.916827 0.762948 0.197009
0.094328 0.847539 0.212407
0.158906 0.848525 0.209013
0.255236 0.849507 0.205659
0.383346 0.850482 0.202344
0.530000 0.851453 0.199070
0.671650 0.852418 0.195836
0.787709 0.853379 0.192642
0.870646 0.854334 0.189487
0.916827 0.855284 0.186373
0.101919 0.910778 0.201148
0.170715 0.911398 0.197888
0.271890 0.912014 0.194669
0.403827 0.912627 0.191489
0.551311 0.913235 0.188349
0.690291 0.913840 0.185249
0.801706 0.914440 0.182188
0.880008 0.915037 0.179167
0.916827 0.915630 0.176185
0.083173 0.083173 0.486206
0.138238 0.083173 0.478562
0.220974 0.083173 0.470928
0.334033 0.083173 0.463308
0.470036 0.083173 0.455704
0.610639 0.083173 0.448122
0.734973 0.083173 0.440563
0.830616 0.083173 0.433032
0.896600 0.083173 0.425532
0.083173 0.131058 0.460537
0.138238 0.131640 0.452941
0.220974 0.132224 0.445367
0.334033 0.132811 0.437818
0.470036 0.133400 0.430298
0.610639 0.133991 0.422809
0.734973 0.134584 0.415356
0.830616 0.135179 0.407942
0.896600 0.135777 0.400569
0.083173 0.215435 0.435077
0.138238 0.216298 0.427568
0.220974 0.217165 0.420092
0.334033 0.218033 0.412652
0.470036 0.218904 0.405253
0.610639 0.219778 0.397896
0.734973 0.220654 0.390585
0.830616 0.221533 0.383323
0.896600 0.222414 0.376112
0.083173 0.333298 0.409954
0.138238 0.334433 0.402569
0.220974 0.335569 0.395229
0.334033 0.336708 0.387935
0.470036 0.337848 0.380691
0.610639 0.338991 0.373500
0.734973 0.340135 0.366365
0.830616 0.341281 0.359288
0.897298 0.342599 0.352961
0.083173 0.476482 0.385292
0.138238 0.477755 0.378067
0.220974 0.479028 0.370896
0.334033 0.480301 0.363781
0.470036 0.481575 0.356726
0.614637 0.483270 0.351266
0.743141 0.485181 0.346629
0.839952 0.487093 0.342022
0.904942 0.489006 0.337444
0.083173 0.623639 0.361206
0.138313 0.624850 0.354229
0.225506 0.626643 0.349575
0.345619 0.628432 0.344949
0.489292 0.630217 0.340352
0.634755 0.631999 0.335784
0.759179 0.633777 0.331248
0.851156 0.635552 0.326742
0.912073 0.637323 0.322268
0.087939 0.752181 0.343272
0.148862 0.753605 0.338685
0.240847 0.755024 0.334129
0.365278 0.756437 0.329604
0.510744 0.757844 0.325110
0.654413 0.759246 0.320648
0.774519 0.760642 0.316218
0.861705 0.762033 0.311822
0.916827 0.763418 0.307459
0.095070 0.847875 0.327964
0.160067 0.848859 0.323482
0.256886 0.849839 0.319031
0.385397 0.850813 0.314614
0.532158 0.851781 0.310230
0.673558 0.852745 0.305879
0.789154 0.853704 0.301563
0.871618 0.854657 0.297282
0.916827 0.855605 0.293036
0.102715 0.910989 0.313014
0.171945 0.911608 0.308642
0.273608 0.912223 0.304304
0.405915 0.912834 0.300000
0.553453 0.913441 0.295732
0.692140 0.914044 0.291499
0.803080 0.914643 0.287302
0.880920 0.915239 0.283141
0.916827 0.915831 0.279017
0.083173 0.083173 0.630512
0.138238 0.083173 0.623352
0.220974 0.083173 0.616137
0.334033 0.083173 0.608871
0.470036 0.083173 0.601557
0.610639 0.083173 0.594196
0.734973 0.083173 0.586794
0.830616 0.083173 0.579352
0.896600 0.083173 0.571873
0.083173 0.131255 0.606214
0.138238 0.131838 0.598882
0.220974 0.132423 0.591506
0.334033 0.133011 0.584089
0.470036 0.133600 0.576633
0.610639 0.134192 0.569142
0.734973 0.134786 0.561620
0.830616 0.135382 0.554069
0.896600 0.135980 0.546493
0.083173 0.215728 0.581379
0.138238 0.216592 0.573910
0.220974 0.217459 0.566407
0.334033 0.218329 0.558874
0.470036 0.219201 0.551313
0.610639 0.220075 0.543729
0.734973 0.220952 0.536124
0.830616 0.221832 0.528503
0.896600 0.222714 0.520868
0.083173 0.333683 0.556124
0.138238 0.334818 0.548555
0.220974 0.335956 0.540962
0.334033 0.337095 0.533351
0.470036 0.338236 0.525724
0.610639 0.339379 0.518086
0.734973 0.340524 0.510438
0.830616 0.341671 0.502786
0.898094 0.343185 0.496755
0.083173 0.476914 0.530576
0.138238 0.478187 0.522945
0.220974 0.479460 0.515302
0.334033 0.480734 0.507653
0.470036 0.482008 0.500000
0.616688 0.483919 0.494898
0.744792 0.485831 0.489797
0.841113 0.487743 0.484698
0.905685 0.489655 0.479602
0.083173 0.624046 0.504867
0.139348 0.625459 0.498142
0.227023 0.627251 0.493040
0.347581 0.629038 0.487940
0.491457 0.630823 0.482842
0.636762 0.632603 0.477748
0.760760 0.634380 0.472658
0.852250 0.636154 0.467574
0.912765 0.637923 0.462496
0.088636 0.752666 0.486084
0.149963 0.754088 0.480987
0.242435 0.755504 0.475894
0.367289 0.756915 0.470806
0.512909 0.758321 0.465724
0.656370 0.759721 0.460650
0.776029 0.761115 0.455583
0.862734 0.762504 0.450526
0.916827 0.763887 0.445478
0.095818 0.848210 0.468955
0.161235 0.849192 0.463876
0.258544 0.850170 0.458804
0.387451 0.851142 0.453741
0.534314 0.852109 0.448687
0.675460 0.853071 0.443644
0.790592 0.854028 0.438612
0.872585 0.854980 0.433593
0.916827 0.855926 0.428588
0.103516 0.911200 0.451900
0.173182 0.911817 0.446850
0.275334 0.912431 0.441810
0.408006 0.913040 0.436783
0.555593 0.913646 0.431769
0.693983 0.914248 0.426769
0.804446 0.914846 0.421784
0.881826 0.915440 0.416814
0.916827 0.916031 0.411862
0.083173 0.083173 0.754733
0.138238 0.083173 0.749022
0.220974 0.083173 0.743223
0.334033 0.083173 0.737337
0.470036 0.083173 0.731365
0.610639 0.083173 0.725308
0.734973 0.083173 0.719166
0.830616 0.083173 0.712942
0.896600 0.083173 0.706636
0.083173 0.131453 0.735173
0.138238 0.132037 0.729169
0.220974 0.132623 0.723081
0.334033 0.133211 0.716910
0.470036 0.133801 0.710655
0.610639 0.134393 0.704320
0.734973 0.134988 0.697905
0.830616 0.135585 0.691411
0.896600 0.136184 0.684842
0.083173 0.216021 0.714642
0.138238 0.216886 0.708358
0.220974 0.217754 0.701994
0.334033 0.218625 0.695550
0.470036 0.219498 0.689028
0.610639 0.220373 0.682431
0.734973 0.221251 0.675760
0.830616 0.222131 0.669016
0.896600 0.223014 0.662202
0.083173 0.334068 0.693184
0.138238 0.335204 0.686635
0.220974 0.336342 0.680011
0.334033 0.337482 0.673313
0.470036 0.338624 0.666543
0.610639 0.339768 0.659704
0.734973 0.340913 0.652798
0.830616 0.342061 0.645828
0.898884 0.343771 0.641088
0.083173 0.477346 0.670856
0.138238 0.478619 0.664061
0.220974 0.479893 0.657198
0.334033 0.481167 0.650268
0.472195 0.482657 0.644069
0.618733 0.484568 0.639377
0.746435 0.486480 0.634657
0.842268 0.488392 0.629912
0.906422 0.490305 0.625142
0.083173 0.624452 0.647729
0.140391 0.626068 0.642364
0.228547 0.627858 0.637662
0.349549 0.629645 0.632933
0.493622 0.631428 0.628178
0.638763 0.633207 0.623399
0.762333 0.634983 0.618595
0.853338 0.636755 0.613768
0.913452 0.638523 0.608919
0.089339 0.753149 0.631205
0.151071 0.754569 0.626441
0.244030 0.755984 0.621653
0.369305 0.757393 0.616841
0.515073 0.758797 0.612006
0.658322 0.760195 0.607148
0.777531 0.761587 0.602270
0.863757 0.762974 0.597371
0.916827 0.764355 0.592452
0.096572 0.848544 0.615083
0.162411 0.849525 0.610240
0.260208 0.850501 0.605375
0.389509 0.851471 0.600488
0.536469 0.852437 0.595582
0.677356 0.853397 0.590657
0.792023 0.854352 0.585713
0.873545 0.855301 0.580752
0.916827 0.856246 0.575775
0.104323 0.911410 0.598705
0.174426 0.912026 0.593791
0.277066 0.912638 0.588859
0.410100 0.913246 0.583909
0.557731 0.913851 0.578942
0.695820 0.914452 0.573959
0.805806 0.915048 0.568961
0.882725 0.915641 0.563949
0.916827 0.916231 0.558923
0.083173 0.083173 0.847305
0.138238 0.083173 0.843302
0.220974 0.083173 0.839214
0.334033 0.083173 0.835040
0.470036 0.083173 0.830779
0.610639 0.083173 0.826432
0.734973 0.083173 0.821996
0.830616 0.083173 0.817473
0.896600 0.083173 0.812860
0.083173 0.131651 0.833499
0.138238 0.132235 0.829207
0.220974 0.132822 0.824827
0.334033 0.133411 0.820360
0.470036 0.134002 0.815804
0.610639 0.134595 0.811159
0.734973 0.135191 0.806425
0.830616 0.135788 0.801601
0.896600 0.136388 0.796687
0.083173 0.216315 0.818711
0.138238 0.217181 0.814123
0.220974 0.218050 0.809446
0.334033 0.218921 0.804679
0.470036 0.219795 0.799822
0.610639 0.220671 0.794876
0.734973 0.221550 0.789839
0.830616 0.222431 0.784712
0.896600 0.223315 0.779495
0.083173 0.334454 0.802921
0.138238 0.335591 0.798032
0.220974 0.336729 0.793052
0.334033 0.337870 0.787983
0.470036 0.339012 0.782823
0.610639 0.340157 0.777573
0.734973 0.341303 0.772234
0.831744 0.342632 0.767379
0.899669 0.344358 0.763715
0.083173 0.477779 0.786115
0.138238 0.479052 0.780922
0.220974 0.480325 0.775640
0.334033 0.481599 0.770267
0.474355 0.483306 0.766050
0.620775 0.485217 0.762372
0.748071 0.487129 0.758655
0.843416 0.489042 0.754898
0.907155 0.490954 0.751102
0.083257 0.624884 0.768368
0.141440 0.626676 0.764715
0.230078 0.628465 0.761023
0.351521 0.630251 0.757292
0.495788 0.632032 0.753521
0.640760 0.633811 0.749710
0.763899 0.635585 0.745861
0.854419 0.637356 0.741973
0.914135 0.639123 0.738047
0.090046 0.753632 0.755923
0.152186 0.755050 0.752138
0.245632 0.756463 0.748314
0.371325 0.757870 0.744450
0.517237 0.759272 0.740548
0.660268 0.760668 0.736607
0.779026 0.762059 0.732629
0.864773 0.763444 0.728612
0.916827 0.764823 0.724557
0.097330 0.848878 0.743034
0.163593 0.849857 0.739118
0.261879 0.850831 0.735163
0.391571 0.851800 0.731171
0.538623 0.852763 0.727140
0.679247 0.853722 0.723072
0.793446 0.854675 0.718966
0.874499 0.855623 0.714824
0.916827 0.856566 0.710646
0.105135 0.911620 0.729708
0.175677 0.912234 0.725663
0.278804 0.912845 0.721582
0.412198 0.913452 0.717463
0.559867 0.914055 0.713307
0.697651 0.914655 0.709115
0.807158 0.915250 0.704888
0.883619 0.915842 0.700624
0.916827 0.916430 0.696326
0.083173 0.083173 0.909144
0.138238 0.083173 0.906583
0.220974 0.083173 0.903958
0.334033 0.083173 0.901267
0.470036 0.083173 0.898509
0.610639 0.083173 0.895683
0.734973 0.083173 0.892788
0.830616 0.083173 0.889822
0.896600 0.083173 0.886784
0.083173 0.131849 0.900270
0.138238 0.132434 0.897488
0.220974 0.133022 0.894637
0.334033 0.133611 0.891716
0.470036 0.134203 0.888724
0.610639 0.134797 0.885660
0.734973 0.135393 0.882524
0.830616 0.135992 0.879312
0.896600 0.136592 0.876025
0.083173 0.216609 0.890635
0.138238 0.217476 0.887617
0.220974 0.218345 0.884527
0.334033 0.219217 0.881363
0.470036 0.220092 0.878124
0.610639 0.220969 0.874810
0.734973 0.221849 0.871418
0.830616 0.222731 0.867949
0.896600 0.223615 0.864400
0.083173 0.334840 0.880193
0.138238 0.335977 0.876927
0.220974 0.337116 0.873584
0.334033 0.338258 0.870164
0.470036 0.339401 0.866666
0.610639 0.340546 0.863089
0.734973 0.341692 0.859431
0.832953 0.343217 0.856514
0.900448 0.344945 0.853988
0.083173 0.478211 0.868900
0.138238 0.479484 0.865373
0.220974 0.480758 0.861766
0.334140 0.482044 0.858102
0.476515 0.483955 0.855599
0.622813 0.485867 0.853059
0.749701 0.487779 0.850482
0.844556 0.489691 0.847868
0.907882 0.491604 0.845217
0.083921 0.625493 0.857195
0.142495 0.627284 0.854678
0.231616 0.629072 0.852125
0.353499 0.630856 0.849535
0.497954 0.632637 0.846907
0.642752 0.634414 0.844242
0.765458 0.636187 0.841540
0.855493 0.637956 0.838799
0.914812 0.639722 0.836020
0.090759 0.754114 0.848583
0.153307 0.755531 0.845941
0.247241 0.756942 0.843263
0.373350 0.758347 0.840546
0.519400 0.759747 0.837792
0.662209 0.761141 0.834999
0.780514 0.762530 0.832168
0.865783 0.763913 0.829298
0.916827 0.765290 0.826389
0.098094 0.849211 0.839548
0.164782 0.850188 0.836779
0.263557 0.851160 0.833973
0.393637 0.852127 0.831127
0.540775 0.853089 0.828243
0.681131 0.854046 0.825321
0.794862 0.854997 0.822359
0.875447 0.855944 0.819357
0.916827 0.856885 0.816317
0.105953 0.911829 0.830082
0.176936 0.912442 0.827184
0.280550 0.913052 0.824247
0.414298 0.913657 0.821271
0.562001 0.914259 0.818255
0.699475 0.914857 0.815200
0.808503 0.915452 0.812106
0.884507 0.916042 0.808971
0.916827 0.916629 0.805798
0.083173 0.083173 0.916827
0.138238 0.083173 0.916827
0.220974 0.083173 0.916827
0.334033 0.083173 0.916827
0.470036 0.083173 0.916827
0.610639 0.083173 0.916827
0.734973 0.083173 0.916827
0.830616 0.083173 0.916827
0.896600 0.083173 0.916827
0.083173 0.132048 0.916827
0.138238 0.132634 0.916827
0.220974 0.133222 0.916827
0.334033 0.133812 0.916827
0.470036 0.134405 0.916827
0.610639 0.134999 0.916827
0.734973 0.135596 0.916827
0.830616 0.136195 0.916827
0.896600 0.136797 0.916827
0.083173 0.216903 0.916827
0.138238 0.217771 0.916827
0.220974 0.218641 0.916827
0.334033 0.219514 0.916827
0.470036 0.220389 0.916827
0.610639 0.221267 0.916827
0.734973 0.222148 0.916827
0.830616 0.223031 0.916827
0.896600 0.223916 0.916827
0.083173 0.335226 0.916827
0.138238 0.336364 0.916827
0.220974 0.337504 0.916827
0.334033 0.338646 0.916827
0.470036 0.339789 0.916827
0.610639 0.340935 0.916827
0.734973 0.342082 0.916827
0.834155 0.343804 0.915267
0.901222 0.345532 0.913670
0.083173 0.478643 0.916827
0.138238 0.479917 0.916827
0.220974 0.481190 0.916827
0.336070 0.482693 0.916268
0.478677 0.484604 0.914689
0.624846 0.486516 0.913082
0.751323 0.488428 0.911449
0.845690 0.490341 0.909788
0.908604 0.492253 0.908099
0.084589 0.626102 0.915696
0.143557 0.627892 0.914107
0.233162 0.629678 0.912491
0.355481 0.631461 0.910847
0.500120 0.633241 0.909176
0.644739 0.635016 0.907477
0.767010 0.636788 0.905749
0.856561 0.638557 0.903992
0.915485 0.640321 0.902206
0.091476 0.754596 0.910242
0.154435 0.756011 0.908561
0.248857 0.757420 0.906851
0.375379 0.758823 0.905112
0.521563 0.760221 0.903345
0.664144 0.761613 0.901548
0.781995 0.763000 0.899722
0.866787 0.764381 0.897865
0.916827 0.765757 0.895978
0.098863 0.849543 0.904472
0.165978 0.850519 0.902694
0.265243 0.851489 0.900887
0.395707 0.852455 0.899049
0.542926 0.853415 0.897182
0.683010 0.854370 0.895284
0.796272 0.855319 0.893355
0.876388 0.856264 0.891395
0.916827 0.857203 0.889403
0.106777 0.912038 0.898373
0.178201 0.912650 0.896494
0.282302 0.913258 0.894585
0.416402 0.913862 0.892645
0.564133 0.914463 0.890673
0.701293 0.915060 0.888670
0.809841 0.915653 0.886635
0.885389 0.916242 0.884567
0.916827 0.916827 0.882467
