app/src/main/assets/luts/Kodak_2383_Teal_Orange.cube
TITLE "Kodak 2383 Teal & Orange"
LUT_3D_SIZE 5
DOMAIN_MIN 0.0 0.0 0.0
DOMAIN_MAX 1.0 1.0 1.0
0.083173 0.083173 0.138955
0.220974 0.083173 0.131789
0.470036 0.083173 0.124940
0.734973 0.083173 0.118398
0.896600 0.083173 0.112155
0.083173 0.214557 0.116091
0.220974 0.216282 0.109954
0.470036 0.218017 0.104104
0.734973 0.219762 0.098530
0.896600 0.221516 0.093224
0.083173 0.475185 0.096568
0.220974 0.477731 0.091356
0.470036 0.480277 0.086399
0.738149 0.483234 0.083173
0.902682 0.487057 0.083173
0.085876 0.750725 0.083173
0.236127 0.753579 0.083173
0.504248 0.756410 0.083173
0.769948 0.759219 0.083173
0.916754 0.762007 0.083173
0.100344 0.910355 0.083173
0.268473 0.911596 0.083173
0.547021 0.912822 0.083173
0.798937 0.914033 0.083173
0.916827 0.915228 0.083173
0.083173 0.083173 0.344164
0.220974 0.083173 0.330478
0.470036 0.083173 0.317074
0.734973 0.083173 0.303967
0.896600 0.083173 0.291170
0.083173 0.215142 0.299271
0.220974 0.216870 0.286591
0.470036 0.218608 0.274237
0.734973 0.220356 0.262221
0.896600 0.222115 0.250549
0.083173 0.476050 0.257931
0.220974 0.478595 0.246387
0.470036 0.481143 0.235195
0.741484 0.484532 0.226715
0.904194 0.488356 0.219638
0.087247 0.751697 0.224120
0.239267 0.754543 0.217102
0.508579 0.757367 0.210244
0.773003 0.760168 0.203546
0.916827 0.762948 0.197009
0.101919 0.910778 0.201148
0.271890 0.912014 0.194669
0.551311 0.913235 0.188349
0.801706 0.914440 0.182188
0.916827 0.915630 0.176185
0.083173 0.083173 0.630512
0.220974 0.083173 0.616137
0.470036 0.083173 0.601557
0.734973 0.083173 0.586794
0.896600 0.083173 0.571873
0.083173 0.215728 0.581379
0.220974 0.217459 0.566407
0.470036 0.219201 0.551313
0.734973 0.220952 0.536124
0.896600 0.222714 0.520868
0.083173 0.476914 0.530576
0.220974 0.479460 0.515302
0.470036 0.482008 0.500000
0.744792 0.485831 0.489797
0.905685 0.489655 0.479602
0.088636 0.752666 0.486084
0.242435 0.755504 0.475894
0.512909 0.758321 0.465724
0.776029 0.761115 0.455583
0.916827 0.763887 0.445478
0.103516 0.911200 0.451900
0.275334 0.912431 0.441810
0.555593 0.913646 0.431769
0.804446 0.914846 0.421784
0.916827 0.916031 0.411862
0.083173 0.083173 0.847305
0.220974 0.083173 0.839214
0.470036 0.083173 0.830779
0.734973 0.083173 0.821996
0.896600 0.083173 0.812860
0.083173 0.216315 0.818711
0.220974 0.218050 0.809446
0.470036 0.219795 0.799822
0.734973 0.221550 0.789839
0.896600 0.223315 0.779495
0.083173 0.477779 0.786115
0.220974 0.480325 0.775640
0.474355 0.483306 0.766050
0.748071 0.487129 0.758655
0.907155 0.490954 0.751102
0.090046 0.753632 0.755923
0.245632 0.756463 0.748314
0.517237 0.759272 0.740548
0.779026 0.762059 0.732629
0.916827 0.764823 0.724557
0.105135 0.911620 0.729708
0.278804 0.912845 0.721582
0.559867 0.914055 0.713307
0.807158 0.915250 0.704888
0.916827 0.916430 0.696326
0.083173 0.083173 0.916827
0.220974 0.083173 0.916827
0.470036 0.083173 0.916827
0.734973 0.083173 0.916827
0.896600 0.083173 0.916827
0.083173 0.216903 0.916827
0.220974 0.218641 0.916827
0.470036 0.220389 0.916827
0.734973 0.222148 0.916827
0.896600 0.223916 0.916827
0.083173 0.478643 0.916827
0.220974 0.481190 0.916827
0.478677 0.484604 0.914689
0.751323 0.488428 0.911449
0.908604 0.492253 0.908099
0.091476 0.754596 0.910242
0.248857 0.757420 0.906851
0.521563 0.760221 0.903345
0.781995 0.763000 0.899722
0.916827 0.765757 0.895978
0.106777 0.912038 0.898373
0.282302 0.913258 0.894585
0.564133 0.914463 0.890673
0.809841 0.915653 0.886635
0.916827 0.916827 0.882467
