app/src/main/assets/luts/Kodak_2383_Teal_Orange.cube
TITLE "Kodak 2383 Teal & Orange"
LUT_3D_SIZE 17
DOMAIN_MIN 0.0 0.0 0.0
DOMAIN_MAX 1.0 1.0 1.0
0.083173 0.083173 0.138955
0.107647 0.083173 0.137133
0.138238 0.083173 0.135332
0.175810 0.083173 0.133551
0.220974 0.083173 0.131789
0.273885 0.083173 0.130048
0.334033 0.083173 0.128326
0.400112 0.083173 0.126623
0.470036 0.083173 0.124940
0.541157 0.083173 0.123276
0.610639 0.083173 0.121631
0.675902 0.083173 0.120005
0.734973 0.083173 0.118398
0.786675 0.083173 0.116810
0.830616 0.083173 0.115240
0.867036 0.083173 0.113688
0.896600 0.083173 0.112155
0.083173 0.100073 0.132907
0.107647 0.100303 0.131153
0.138238 0.100533 0.129419
0.175810 0.100764 0.127704
0.220974 0.100995 0.126008
0.273885 0.101227 0.124332
0.334033 0.101460 0.122675
0.400112 0.101692 0.121037
0.470036 0.101926 0.119418
0.541157 0.102160 0.117818
0.610639 0.102394 0.116236
0.675902 0.102628 0.114673
0.734973 0.102864 0.113128
0.786675 0.103099 0.111601
0.830616 0.103335 0.110093
0.867036 0.103572 0.108602
0.896600 0.103809 0.107129
0.083173 0.130467 0.127084
0.107647 0.130757 0.125396
0.138238 0.131047 0.123727
0.175810 0.131338 0.122077
0.220974 0.131629 0.120446
0.273885 0.131921 0.118833
0.334033 0.132213 0.117240
0.400112 0.132506 0.115665
0.470036 0.132800 0.114108
0.541157 0.133094 0.112570
0.610639 0.133389 0.111050
0.675902 0.133684 0.109548
0.734973 0.133980 0.108064
0.786675 0.134276 0.106597
0.830616 0.134573 0.105148
0.867036 0.134870 0.103716
0.896600 0.135168 0.102302
0.083173 0.168366 0.121481
0.107647 0.168723 0.119856
0.138238 0.169082 0.118251
0.175810 0.169440 0.116664
0.220974 0.169800 0.115096
0.273885 0.170160 0.113546
0.334033 0.170520 0.112015
0.400112 0.170881 0.110501
0.470036 0.171243 0.109005
0.541157 0.171605 0.107528
0.610639 0.171968 0.106067
0.675902 0.172332 0.104625
0.734973 0.172696 0.103199
0.786675 0.173061 0.101791
0.830616 0.173426 0.100400
0.867036 0.173792 0.099026
0.896600 0.174159 0.097669
0.083173 0.214557 0.116091
0.107647 0.214988 0.114530
0.138238 0.215418 0.112986
0.175810 0.215850 0.111461
0.220974 0.216282 0.109954
0.273885 0.216715 0.108465
0.334033 0.217148 0.106994
0.400112 0.217582 0.105540
0.470036 0.218017 0.104104
0.541157 0.218452 0.102685
0.610639 0.218888 0.101283
0.675902 0.219325 0.099898
0.734973 0.219762 0.098530
0.786675 0.220199 0.097179
0.830616 0.220638 0.095844
0.867036 0.221077 0.094526
0.896600 0.221516 0.093224
0.083173 0.269318 0.110911
0.107647 0.269820 0.109410
0.138238 0.270323 0.107928
0.175810 0.270826 0.106463
0.220974 0.271330 0.105015
0.273885 0.271835 0.103585
0.334033 0.272340 0.102173
0.400112 0.272846 0.100777
0.470036 0.273353 0.099398
0.541157 0.273860 0.098036
0.610639 0.274367 0.096691
0.675902 0.274876 0.095362
0.734973 0.275384 0.094050
0.786675 0.275894 0.092754
0.830616 0.276404 0.091474
0.867036 0.276914 0.090209
0.896600 0.277425 0.088961
0.083173 0.332144 0.105934
0.107647 0.332710 0.104493
0.138238 0.333276 0.103069
0.175810 0.333844 0.101662
0.220974 0.334411 0.100273
0.273885 0.334979 0.098900
0.334033 0.335548 0.097545
0.400112 0.336117 0.096205
0.470036 0.336686 0.094883
0.541157 0.337256 0.093576
0.610639 0.337827 0.092286
0.675902 0.338398 0.091012
0.734973 0.338969 0.089753
0.786675 0.339541 0.088510
0.830616 0.340113 0.087283
0.867036 0.340686 0.086071
0.896600 0.341260 0.084875
0.083173 0.401571 0.101155
0.107647 0.402184 0.099771
0.138238 0.402798 0.098405
0.175810 0.403412 0.097055
0.220974 0.404026 0.095722
0.273885 0.404640 0.094405
0.334033 0.405255 0.093105
0.400112 0.405870 0.091820
0.470036 0.406485 0.090552
0.541157 0.407101 0.089299
0.610639 0.407717 0.088062
0.675902 0.408333 0.086840
0.734973 0.408950 0.085634
0.786675 0.409567 0.084443
0.830616 0.410184 0.083267
0.868382 0.411085 0.083173
0.898847 0.412012 0.083173
0.083173 0.475185 0.096568
0.107647 0.475821 0.095241
0.138238 0.476458 0.093930
0.175810 0.477094 0.092635
0.220974 0.477731 0.091356
0.273885 0.478367 0.090094
0.334033 0.479004 0.088847
0.400112 0.479641 0.087615
0.470036 0.480277 0.086399
0.541157 0.480914 0.085199
0.610639 0.481551 0.084013
0.676692 0.482278 0.083173
0.738149 0.483234 0.083173
0.791522 0.484190 0.083173
0.836427 0.485145 0.083173
0.873209 0.486101 0.083173
0.902682 0.487057 0.083173
0.083173 0.549894 0.092168
0.107647 0.550525 0.090895
0.138238 0.551156 0.089638
0.175810 0.551787 0.088397
0.220974 0.552418 0.087171
0.273885 0.553049 0.085961
0.334033 0.553680 0.084765
0.400112 0.554310 0.083585
0.472093 0.555144 0.083173
0.546369 0.556089 0.083173
0.618637 0.557033 0.083173
0.686008 0.557977 0.083173
0.746358 0.558921 0.083173
0.798515 0.559864 0.083173
0.842214 0.560807 0.083173
0.877885 0.561749 0.083173
0.906388 0.562691 0.083173
0.083173 0.622418 0.087949
0.107647 0.623017 0.086728
0.138238 0.623616 0.085524
0.175810 0.624215 0.084334
0.220999 0.624817 0.083173
0.276458 0.625713 0.083173
0.339764 0.626609 0.083173
0.409366 0.627504 0.083173
0.482799 0.628398 0.083173
0.556982 0.629291 0.083173
0.628708 0.630183 0.083173
0.695177 0.631075 0.083173
0.754395 0.631965 0.083173
0.805330 0.632855 0.083173
0.847833 0.633744 0.083173
0.882411 0.634631 0.083173
0.909966 0.635518 0.083173
0.083173 0.689847 0.083905
0.108108 0.690495 0.083173
0.140342 0.691313 0.083173
0.180243 0.692129 0.083173
0.228475 0.692944 0.083173
0.285123 0.693757 0.083173
0.349456 0.694570 0.083173
0.419780 0.695381 0.083173
0.493520 0.696191 0.083173
0.567544 0.697000 0.083173
0.638669 0.697807 0.083173
0.704194 0.698614 0.083173
0.762259 0.699419 0.083173
0.811970 0.700223 0.083173
0.853287 0.701025 0.083173
0.886791 0.701827 0.083173
0.913420 0.702627 0.083173
0.085876 0.750725 0.083173
0.112316 0.751441 0.083173
0.145599 0.752155 0.083173
0.186671 0.752867 0.083173
0.236127 0.753579 0.083173
0.293950 0.754289 0.083173
0.359273 0.754997 0.083173
0.430266 0.755704 0.083173
0.504248 0.756410 0.083173
0.578044 0.757115 0.083173
0.648512 0.757818 0.083173
0.713053 0.758519 0.083173
0.769948 0.759219 0.083173
0.818434 0.759918 0.083173
0.858578 0.760616 0.083173
0.891028 0.761312 0.083173
0.916754 0.762007 0.083173
0.089306 0.803191 0.083173
0.116666 0.803795 0.083173
0.151019 0.804398 0.083173
0.193274 0.804999 0.083173
0.243954 0.805599 0.083173
0.302934 0.806198 0.083173
0.369210 0.806795 0.083173
0.440816 0.807391 0.083173
0.514972 0.807985 0.083173
0.588474 0.808578 0.083173
0.658230 0.809170 0.083173
0.721753 0.809760 0.083173
0.777460 0.810349 0.083173
0.824724 0.810936 0.083173
0.863709 0.811522 0.083173
0.895125 0.812107 0.083173
0.916827 0.812690 0.083173
0.092858 0.846866 0.083173
0.121162 0.847362 0.083173
0.156604 0.847856 0.083173
0.200053 0.848349 0.083173
0.251956 0.848841 0.083173
0.312072 0.849331 0.083173
0.379259 0.849820 0.083173
0.451419 0.850308 0.083173
0.525681 0.850794 0.083173
0.598825 0.851279 0.083173
0.667817 0.851763 0.083173
0.730288 0.852246 0.083173
0.784796 0.852727 0.083173
0.830841 0.853207 0.083173
0.868682 0.853686 0.083173
0.899086 0.854163 0.083173
0.916827 0.854639 0.083173
0.096536 0.882270 0.083173
0.125806 0.882667 0.083173
0.162355 0.883063 0.083173
0.207009 0.883457 0.083173
0.260129 0.883851 0.083173
0.321358 0.884243 0.083173
0.389412 0.884634 0.083173
0.462066 0.885024 0.083173
0.536368 0.885413 0.083173
0.609089 0.885801 0.083173
0.677267 0.886187 0.083173
0.738656 0.886572 0.083173
0.791955 0.886957 0.083173
0.836786 0.887340 0.083173
0.873500 0.887722 0.083173
0.902913 0.888103 0.083173
0.916827 0.888482 0.083173
0.100344 0.910355 0.083173
0.130601 0.910667 0.083173
0.168276 0.910978 0.083173
0.214141 0.911288 0.083173
0.268473 0.911596 0.083173
0.330787 0.911904 0.083173
0.399662 0.912211 0.083173
0.472748 0.912517 0.083173
0.547021 0.912822 0.083173
0.619257 0.913126 0.083173
0.686574 0.913429 0.083173
0.746855 0.913732 0.083173
0.798937 0.914033 0.083173
0.842563 0.914333 0.083173
0.878166 0.914632 0.083173
0.906610 0.914931 0.083173
0.916827 0.915228 0.083173
0.083173 0.083173 0.178111
0.107647 0.083173 0.175881
0.138238 0.083173 0.173674
0.175810 0.083173 0.171488
0.220974 0.083173 0.169324
0.273885 0.083173 0.167182
0.334033 0.083173 0.165061
0.400112 0.083173 0.162962
0.470036 0.083173 0.160885
0.541157 0.083173 0.158829
0.610639 0.083173 0.156795
0.675902 0.083173 0.154782
0.734973 0.083173 0.152790
0.786675 0.083173 0.150819
0.830616 0.083173 0.148869
0.867036 0.083173 0.146940
0.896600 0.083173 0.145032
0.083173 0.100151 0.170697
0.107647 0.100381 0.168541
0.138238 0.100611 0.166407
0.175810 0.100843 0.164295
0.220974 0.101074 0.162204
0.273885 0.101306 0.160134
0.334033 0.101539 0.158086
0.400112 0.101772 0.156060
0.470036 0.102005 0.154054
0.541157 0.102239 0.152070
0.610639 0.102473 0.150107
0.675902 0.102708 0.148164
0.734973 0.102944 0.146243
0.786675 0.103179 0.144342
0.830616 0.103416 0.142462
0.867036 0.103653 0.140602
0.896600 0.103890 0.138762
0.083173 0.130565 0.163531
0.107647 0.130855 0.161448
0.138238 0.131146 0.159386
0.175810 0.131437 0.157346
0.220974 0.131728 0.155327
0.273885 0.132020 0.153329
0.334033 0.132313 0.151353
0.400112 0.132606 0.149397
0.470036 0.132900 0.147462
0.541157 0.133194 0.145548
0.610639 0.133489 0.143655
0.675902 0.133784 0.141782
0.734973 0.134080 0.139930
0.786675 0.134377 0.138098
0.830616 0.134674 0.136286
0.867036 0.134971 0.134494
0.896600 0.135269 0.132722
0.083173 0.168487 0.156609
0.107647 0.168845 0.154597
0.138238 0.169203 0.152607
0.175810 0.169562 0.150638
0.220974 0.169922 0.148690
0.273885 0.170282 0.146763
0.334033 0.170643 0.144857
0.400112 0.171004 0.142971
0.470036 0.171366 0.141105
0.541157 0.171729 0.139260
0.610639 0.172092 0.137436
0.675902 0.172456 0.135631
0.734973 0.172820 0.133847
0.786675 0.173185 0.132082
0.830616 0.173551 0.130337
0.867036 0.173917 0.128612
0.896600 0.174284 0.126906
0.083173 0.214703 0.149927
0.107647 0.215134 0.147986
0.138238 0.215565 0.146067
0.175810 0.215997 0.144168
0.220974 0.216429 0.142289
0.273885 0.216862 0.140431
0.334033 0.217296 0.138594
0.400112 0.217730 0.136776
0.470036 0.218165 0.134979
0.541157 0.218600 0.133202
0.610639 0.219036 0.131444
0.675902 0.219473 0.129707
0.734973 0.219910 0.127988
0.786675 0.220348 0.126290
0.830616 0.220787 0.124610
0.867036 0.221226 0.122950
0.896600 0.221666 0.121309
0.083173 0.269488 0.143481
0.107647 0.269991 0.141611
0.138238 0.270494 0.139760
0.175810 0.270997 0.137930
0.220974 0.271502 0.136120
0.273885 0.272007 0.134330
0.334033 0.272512 0.132560
0.400112 0.273018 0.130809
0.470036 0.273525 0.129079
0.541157 0.274032 0.127368
0.610639 0.274540 0.125676
0.675902 0.275048 0.124004
0.734973 0.275557 0.122351
0.786675 0.276067 0.120716
0.830616 0.276577 0.119101
0.867036 0.277088 0.117504
0.896600 0.277599 0.115926
0.083173 0.332336 0.137268
0.107647 0.332902 0.135466
0.138238 0.333469 0.133683
0.175810 0.334036 0.131920
0.220974 0.334604 0.130177
0.273885 0.335172 0.128454
0.334033 0.335741 0.126750
0.400112 0.336310 0.125065
0.470036 0.336880 0.123400
0.541157 0.337450 0.121753
0.610639 0.338021 0.120126
0.675902 0.338592 0.118518
0.734973 0.339163 0.116928
0.786675 0.339735 0.115356
0.830616 0.340308 0.113803
0.867036 0.340881 0.112269
0.896600 0.341454 0.110752
0.083173 0.401779 0.131283
0.107647 0.402393 0.129547
0.138238 0.403006 0.127831
0.175810 0.403620 0.126134
0.220974 0.404234 0.124457
0.273885 0.404849 0.122798
0.334033 0.405464 0.121159
0.400112 0.406079 0.119538
0.470036 0.406694 0.117937
0.541157 0.407310 0.116354
0.610639 0.407926 0.114789
0.675902 0.408543 0.113243
0.734973 0.409159 0.111715
0.786675 0.409776 0.110205
0.831080 0.410473 0.108840
0.868876 0.411399 0.107855
0.899240 0.412326 0.106877
0.083173 0.475401 0.125521
0.107647 0.476038 0.123851
0.138238 0.476674 0.122199
0.175810 0.477310 0.120567
0.220974 0.477947 0.118953
0.273885 0.478584 0.117358
0.334033 0.479220 0.115782
0.400112 0.479857 0.114224
0.470036 0.480494 0.112684
0.541157 0.481131 0.111163
0.610639 0.481767 0.109659
0.677639 0.482603 0.108481
0.738985 0.483558 0.107498
0.792236 0.484514 0.106523
0.837019 0.485470 0.105555
0.873688 0.486426 0.104596
0.903062 0.487382 0.103644
0.083173 0.550108 0.119977
0.107647 0.550740 0.118370
0.138238 0.551371 0.116782
0.175810 0.552002 0.115212
0.220974 0.552632 0.113661
0.273885 0.553263 0.112128
0.334033 0.553894 0.110613
0.400112 0.554524 0.109116
0.473173 0.555465 0.108122
0.547443 0.556410 0.107142
0.619659 0.557354 0.106169
0.686941 0.558298 0.105205
0.747177 0.559241 0.104248
0.799211 0.560184 0.103299
0.842788 0.561127 0.102358
0.878348 0.562069 0.101424
0.906755 0.563011 0.100498
0.083173 0.622622 0.114646
0.107647 0.623221 0.113101
0.138238 0.623820 0.111575
0.175810 0.624418 0.110066
0.221745 0.625121 0.108749
0.277325 0.626018 0.107764
0.340737 0.626913 0.106787
0.410414 0.627808 0.105817
0.483881 0.628701 0.104856
0.558051 0.629594 0.103902
0.629719 0.630486 0.102955
0.696094 0.631377 0.102017
0.755197 0.632268 0.101086
0.806009 0.633157 0.100162
0.848391 0.634045 0.099246
0.882859 0.634933 0.098338
0.910320 0.635819 0.097436
0.083173 0.690033 0.109522
0.108527 0.690773 0.108390
0.140865 0.691590 0.107407
0.180884 0.692406 0.106433
0.229239 0.693220 0.105466
0.286007 0.694033 0.104507
0.350441 0.694845 0.103556
0.420836 0.695656 0.102613
0.494603 0.696466 0.101677
0.568607 0.697274 0.100749
0.639668 0.698081 0.099828
0.705095 0.698887 0.098915
0.763043 0.699692 0.098009
0.812630 0.700495 0.097110
0.853828 0.701298 0.096219
0.887225 0.702099 0.095335
0.913762 0.702898 0.094459
0.086217 0.750968 0.106080
0.112749 0.751683 0.105116
0.146139 0.752397 0.104160
0.187330 0.753109 0.103212
0.236909 0.753820 0.102271
0.294850 0.754529 0.101338
0.360271 0.755237 0.100413
0.431329 0.755944 0.099494
0.505331 0.756649 0.098584
0.579100 0.757353 0.097681
0.649499 0.758056 0.096785
0.713939 0.758757 0.095897
0.770714 0.759457 0.095015
0.819077 0.760155 0.094142
0.859103 0.760852 0.093275
0.891448 0.761548 0.092415
0.916827 0.762242 0.091563
0.089658 0.803396 0.102869
0.117113 0.804000 0.101931
0.151575 0.804602 0.101000
0.193950 0.805203 0.100077
0.244754 0.805803 0.099162
0.303850 0.806401 0.098254
0.370219 0.806997 0.097354
0.441884 0.807593 0.096461
0.516053 0.808187 0.095575
0.589523 0.808779 0.094696
0.659204 0.809370 0.093825
0.722622 0.809960 0.092961
0.778209 0.810548 0.092104
0.825349 0.811135 0.091254
0.864218 0.811721 0.090412
0.895531 0.812305 0.089576
0.916827 0.812888 0.088747
0.093223 0.847035 0.099743
0.121624 0.847530 0.098831
0.157177 0.848024 0.097926
0.200747 0.848516 0.097028
0.252773 0.849007 0.096137
0.313002 0.849497 0.095254
0.380279 0.849986 0.094378
0.452492 0.850473 0.093510
0.526761 0.850959 0.092648
0.599865 0.851444 0.091794
0.668777 0.851927 0.090947
0.731140 0.852409 0.090107
0.785527 0.852890 0.089274
0.831448 0.853370 0.088447
0.869175 0.853848 0.087628
0.899478 0.854325 0.086816
0.916827 0.854800 0.086010
0.096915 0.882405 0.096703
0.126283 0.882801 0.095815
0.162945 0.883197 0.094935
0.207721 0.883591 0.094061
0.260964 0.883984 0.093195
0.322303 0.884376 0.092337
0.390443 0.884767 0.091485
0.463143 0.885156 0.090640
0.537445 0.885545 0.089803
0.610120 0.885932 0.088972
0.678213 0.886318 0.088148
0.739492 0.886703 0.087331
0.792668 0.887087 0.086521
0.837377 0.887470 0.085718
0.873978 0.887851 0.084922
0.903292 0.888232 0.084132
0.916827 0.888611 0.083349
0.100736 0.910461 0.093745
0.131094 0.910773 0.092882
0.168883 0.911083 0.092026
0.214871 0.911393 0.091177
0.269325 0.911701 0.090334
0.331747 0.912009 0.089499
0.400702 0.912315 0.088671
0.473828 0.912621 0.087850
0.548094 0.912926 0.087036
0.620278 0.913229 0.086228
0.687506 0.913532 0.085428
0.747673 0.913834 0.084634
0.799632 0.914135 0.083846
0.843136 0.914435 0.083173
0.878629 0.914734 0.083173
0.906976 0.915032 0.083173
0.916827 0.915329 0.083173
0.083173 0.083173 0.225413
0.107647 0.083173 0.222751
0.138238 0.083173 0.220112
0.175810 0.083173 0.217496
0.220974 0.083173 0.214902
0.273885 0.083173 0.212331
0.334033 0.083173 0.209782
0.400112 0.083173 0.207256
0.470036 0.083173 0.204752
0.541157 0.083173 0.202271
0.610639 0.083173 0.199812
0.675902 0.083173 0.197376
0.734973 0.083173 0.194962
0.786675 0.083173 0.192571
0.830616 0.083173 0.190202
0.867036 0.083173 0.187856
0.896600 0.083173 0.185531
0.083173 0.100229 0.216549
0.107647 0.100459 0.213963
0.138238 0.100690 0.211400
0.175810 0.100921 0.208860
0.220974 0.101153 0.206342
0.273885 0.101385 0.203846
0.334033 0.101618 0.201373
0.400112 0.101851 0.198923
0.470036 0.102084 0.196495
0.541157 0.102319 0.194089
0.610639 0.102553 0.191706
0.675902 0.102788 0.189345
0.734973 0.103024 0.187007
0.786675 0.103260 0.184691
0.830616 0.103496 0.182397
0.867036 0.103733 0.180125
0.896600 0.103971 0.177876
0.083173 0.130664 0.207940
0.107647 0.130954 0.205430
0.138238 0.131244 0.202943
0.175810 0.131536 0.200478
0.220974 0.131827 0.198036
0.273885 0.132120 0.195616
0.334033 0.132412 0.193219
0.400112 0.132706 0.190844
0.470036 0.133000 0.188491
0.541157 0.133294 0.186161
0.610639 0.133589 0.183853
0.675902 0.133885 0.181567
0.734973 0.134181 0.179304
0.786675 0.134477 0.177062
0.830616 0.134775 0.174843
0.867036 0.135072 0.172645
0.896600 0.135371 0.170470
0.083173 0.168609 0.199587
0.107647 0.168967 0.197153
0.138238 0.169325 0.194741
0.175810 0.169684 0.192352
0.220974 0.170044 0.189985
0.273885 0.170404 0.187640
0.334033 0.170765 0.185318
0.400112 0.171127 0.183018
0.470036 0.171489 0.180741
0.541157 0.171852 0.178485
0.610639 0.172215 0.176252
0.675902 0.172579 0.174040
0.734973 0.172944 0.171851
0.786675 0.173309 0.169683
0.830616 0.173675 0.167538
0.867036 0.174041 0.165413
0.896600 0.174408 0.163311
0.083173 0.214850 0.191487
0.107647 0.215280 0.189129
0.138238 0.215711 0.186792
0.175810 0.216143 0.184478
0.220974 0.216576 0.182187
0.273885 0.217009 0.179917
0.334033 0.217443 0.177669
0.400112 0.217877 0.175444
0.470036 0.218312 0.173241
0.541157 0.218748 0.171059
0.610639 0.219184 0.168900
0.675902 0.219621 0.166762
0.734973 0.220059 0.164646
0.786675 0.220497 0.162551
0.830616 0.220936 0.160478
0.867036 0.221375 0.158427
0.896600 0.221815 0.156396
0.083173 0.269659 0.183641
0.107647 0.270161 0.181358
0.138238 0.270665 0.179096
0.175810 0.271169 0.176857
0.220974 0.271673 0.174639
0.273885 0.272178 0.172444
0.334033 0.272684 0.170270
0.400112 0.273190 0.168119
0.470036 0.273697 0.165989
0.541157 0.274204 0.163881
0.610639 0.274712 0.161794
0.675902 0.275221 0.159729
0.734973 0.275730 0.157685
0.786675 0.276240 0.155662
0.830616 0.276750 0.153661
0.867036 0.277261 0.151681
0.896600 0.277773 0.149722
0.083173 0.332528 0.176047
0.107647 0.333095 0.173838
0.138238 0.333662 0.171650
0.175810 0.334229 0.169485
0.220974 0.334797 0.167341
0.273885 0.335365 0.165219
0.334033 0.335934 0.163118
0.400112 0.336504 0.161040
0.470036 0.337073 0.158982
0.541157 0.337644 0.156946
0.610639 0.338215 0.154931
0.675902 0.338786 0.152938
0.734973 0.339358 0.150965
0.786675 0.339930 0.149014
0.830616 0.340502 0.147083
0.867036 0.341076 0.145173
0.896600 0.341649 0.143284
0.083173 0.401988 0.168702
0.107647 0.402601 0.166566
0.138238 0.403215 0.164452
0.175810 0.403829 0.162359
0.220974 0.404443 0.160288
0.273885 0.405058 0.158238
0.334033 0.405673 0.156210
0.400112 0.406288 0.154203
0.470036 0.406904 0.152217
0.541157 0.407519 0.150252
0.610639 0.408136 0.148309
0.675902 0.408752 0.146385
0.734973 0.409369 0.144483
0.786675 0.409986 0.142601
0.831687 0.410788 0.141109
0.869369 0.411714 0.139877
0.899632 0.412641 0.138654
0.083173 0.475617 0.161603
0.107647 0.476254 0.159539
0.138238 0.476890 0.157498
0.175810 0.477527 0.155477
0.220974 0.478163 0.153478
0.273885 0.478800 0.151500
0.334033 0.479436 0.149542
0.400112 0.480073 0.147606
0.470036 0.480710 0.145690
0.541157 0.481347 0.143796
0.610639 0.481984 0.141921
0.678585 0.482927 0.140660
0.739820 0.483883 0.139431
0.792948 0.484839 0.138211
0.837609 0.485795 0.137000
0.874165 0.486751 0.135798
0.903441 0.487707 0.134605
0.083173 0.550323 0.154747
0.107647 0.550954 0.152755
0.138238 0.551585 0.150785
0.175810 0.552216 0.148835
0.220974 0.552847 0.146906
0.273885 0.553477 0.144998
0.334033 0.554108 0.143111
0.401111 0.554841 0.141446
0.474253 0.555786 0.140211
0.548516 0.556730 0.138986
0.620679 0.557675 0.137769
0.687872 0.558618 0.136561
0.747994 0.559562 0.135362
0.799905 0.560505 0.134172
0.843362 0.561447 0.132991
0.878810 0.562389 0.131819
0.907120 0.563331 0.130656
0.083173 0.622825 0.148130
0.107647 0.623424 0.146209
0.138238 0.624023 0.144309
0.175810 0.624621 0.142429
0.222494 0.625426 0.140995
0.278194 0.626322 0.139764
0.341711 0.627217 0.138542
0.411462 0.628111 0.137328
0.484963 0.629005 0.136124
0.559119 0.629897 0.134928
0.630729 0.630789 0.133741
0.697010 0.631680 0.132564
0.755997 0.632570 0.131395
0.806685 0.633459 0.130234
0.848947 0.634347 0.129083
0.883307 0.635234 0.127940
0.910673 0.636120 0.126805
0.083226 0.690233 0.141783
0.108946 0.691051 0.140546
0.141390 0.691867 0.139318
0.181527 0.692682 0.138099
0.230006 0.693496 0.136889
0.286893 0.694309 0.135687
0.351428 0.695121 0.134495
0.421892 0.695931 0.133312
0.495686 0.696740 0.132137
0.569669 0.697548 0.130971
0.640666 0.698355 0.129814
0.705995 0.699161 0.128666
0.763825 0.699965 0.127526
0.813289 0.700768 0.126395
0.854368 0.701570 0.125272
0.887658 0.702370 0.124158
0.914103 0.703170 0.123053
0.086559 0.751211 0.137657
0.113183 0.751926 0.136450
0.146680 0.752639 0.135252
0.187990 0.753351 0.134063
0.237693 0.754061 0.132883
0.295751 0.754770 0.131711
0.361270 0.755478 0.130549
0.432392 0.756184 0.129395
0.506414 0.756889 0.128250
0.580156 0.757592 0.127113
0.650484 0.758294 0.125985
0.714823 0.758995 0.124866
0.771479 0.759694 0.123755
0.819718 0.760392 0.122652
0.859627 0.761089 0.121559
0.891866 0.761784 0.120473
0.916827 0.762478 0.119396
0.090013 0.803601 0.133632
0.117562 0.804204 0.132455
0.152133 0.804806 0.131287
0.194628 0.805407 0.130128
0.245556 0.806006 0.128977
0.304767 0.806604 0.127835
0.371230 0.807200 0.126701
0.442952 0.807795 0.125577
0.517135 0.808388 0.124460
0.590570 0.808980 0.123352
0.660176 0.809571 0.122253
0.723489 0.810160 0.121162
0.778956 0.810748 0.120080
0.825972 0.811334 0.119006
0.864725 0.811920 0.117940
0.895936 0.812503 0.116883
0.916827 0.813085 0.115833
0.093590 0.847203 0.129708
0.122087 0.847698 0.128560
0.157751 0.848191 0.127421
0.201443 0.848683 0.126291
0.253592 0.849174 0.125169
0.313935 0.849663 0.124056
0.381300 0.850152 0.122951
0.453565 0.850638 0.121855
0.527841 0.851124 0.120767
0.600905 0.851608 0.119688
0.669736 0.852091 0.118617
0.731991 0.852573 0.117554
0.786256 0.853053 0.116500
0.832055 0.853532 0.115453
0.869667 0.854010 0.114415
0.899869 0.854486 0.113385
0.916827 0.854962 0.112364
0.097294 0.882540 0.125881
0.126762 0.882936 0.124763
0.163537 0.883331 0.123653
0.208434 0.883725 0.122551
0.261800 0.884117 0.121458
0.323250 0.884509 0.120373
0.391474 0.884899 0.119297
0.464220 0.885288 0.118229
0.538522 0.885676 0.117169
0.611150 0.886063 0.116118
0.679158 0.886449 0.115075
0.740325 0.886834 0.114039
0.793379 0.887217 0.113012
0.837966 0.887599 0.111994
0.874454 0.887981 0.110983
0.903670 0.888361 0.109980
0.916827 0.888740 0.108985
0.101129 0.910567 0.122152
0.131588 0.910878 0.121062
0.169492 0.911188 0.119981
0.215603 0.911497 0.118907
0.270178 0.911806 0.117842
0.332708 0.912113 0.116786
0.401743 0.912419 0.115737
0.474908 0.912725 0.114697
0.549167 0.913029 0.113665
0.621298 0.913332 0.112641
0.688436 0.913635 0.111625
0.748489 0.913936 0.110617
0.800325 0.914237 0.109617
0.843708 0.914536 0.108625
0.879090 0.914835 0.107641
0.907341 0.915133 0.106664
0.916827 0.915429 0.105696
0.083173 0.083173 0.280982
0.107647 0.083173 0.277900
0.138238 0.083173 0.274839
0.175810 0.083173 0.271799
0.220974 0.083173 0.268779
0.273885 0.083173 0.265782
0.334033 0.083173 0.262805
0.400112 0.083173 0.259851
0.470036 0.083173 0.256917
0.541157 0.083173 0.254006
0.610639 0.083173 0.251116
0.675902 0.083173 0.248249
0.734973 0.083173 0.245403
0.786675 0.083173 0.242580
0.830616 0.083173 0.239778
0.867036 0.083173 0.236999
0.896600 0.083173 0.234242
0.083173 0.100307 0.270697
