app/src/main/assets/luts/Neon_Night_Tokyo.cube
TITLE "Neon Night Tokyo"
LUT_3D_SIZE 9
DOMAIN_MIN 0.0 0.0 0.0
DOMAIN_MAX 1.0 1.0 1.0
0.030000 0.030000 0.168250
0.108525 0.030000 0.160676
0.229799 0.030000 0.153102
0.351074 0.030000 0.145528
0.472348 0.030000 0.137954
0.593623 0.030000 0.130381
0.714898 0.030000 0.122807
0.836172 0.030000 0.115233
0.957447 0.030000 0.107659
0.030000 0.130937 0.142771
0.117018 0.130937 0.135197
0.238292 0.130937 0.127623
0.359567 0.130937 0.120049
0.480841 0.130937 0.112476
0.602116 0.130937 0.104902
0.723391 0.130937 0.097328
0.844665 0.130937 0.089754
0.965940 0.130937 0.082180
0.030000 0.231875 0.117292
0.125511 0.231875 0.109718
0.246785 0.231875 0.102144
0.368060 0.231875 0.094570
0.489335 0.231875 0.086996
0.610609 0.231875 0.079423
0.731884 0.231875 0.071849
0.853158 0.231875 0.064275
0.974433 0.231875 0.056701
0.030000 0.332812 0.091813
0.134004 0.332812 0.084239
0.255278 0.332812 0.076665
0.376553 0.332812 0.069091
0.497827 0.332812 0.061518
0.619102 0.332812 0.053944
0.740377 0.332812 0.046370
0.861250 0.332812 0.040000
0.980000 0.332812 0.040000
0.030000 0.433750 0.066334
0.142497 0.433750 0.058760
0.263771 0.433750 0.051186
0.385046 0.433750 0.043612
0.505000 0.433750 0.040000
0.623750 0.433750 0.040000
0.742500 0.433750 0.040000
0.861250 0.433750 0.040000
0.980000 0.434518 0.043070
0.030000 0.534687 0.040855
0.148750 0.534687 0.040000
0.267500 0.534687 0.040000
0.386250 0.534687 0.040000
0.505627 0.534813 0.040502
0.629426 0.535823 0.044541
0.753225 0.536833 0.048580
0.877025 0.537842 0.052620
0.980000 0.538852 0.056659
0.030000 0.635625 0.040000
0.151215 0.636118 0.041972
0.275014 0.637128 0.046012
0.398814 0.638138 0.050051
0.522613 0.639148 0.054090
0.646412 0.640157 0.058130
0.770212 0.641167 0.062169
0.894011 0.642177 0.066209
0.980000 0.643187 0.070248
0.044402 0.739443 0.051522
0.168201 0.740453 0.055561
0.292000 0.741463 0.059600
0.415800 0.742472 0.063640
0.539599 0.743482 0.067679
0.663398 0.744492 0.071719
0.787197 0.745502 0.075758
0.910997 0.746512 0.079797
0.980000 0.747522 0.083837
0.061388 0.843778 0.065110
0.185187 0.844787 0.069150
0.308986 0.845797 0.073189
0.432786 0.846807 0.077229
0.556585 0.847817 0.081268
0.680384 0.848827 0.085307
0.804183 0.849837 0.089347
0.927983 0.850847 0.093386
0.980000 0.851856 0.097426
0.030000 0.030000 0.284428
0.109382 0.030000 0.276854
0.230657 0.030000 0.269280
0.351931 0.030000 0.261706
0.473206 0.030000 0.254132
0.594480 0.030000 0.246559
0.715755 0.030000 0.238985
0.837030 0.030000 0.231411
0.958304 0.030000 0.223837
0.030000 0.130937 0.258949
0.117875 0.130937 0.251375
0.239150 0.130937 0.243801
0.360424 0.130937 0.236227
0.481699 0.130937 0.228653
0.602973 0.130937 0.221080
0.724248 0.130937 0.213506
0.845523 0.130937 0.205932
0.966797 0.130937 0.198358
0.030000 0.231875 0.233470
0.126368 0.231875 0.225896
0.247643 0.231875 0.218322
0.368917 0.231875 0.210748
0.490192 0.231875 0.203174
0.611467 0.231875 0.195600
0.732741 0.231875 0.188027
0.854016 0.231875 0.180453
0.975290 0.231875 0.172879
0.030000 0.332812 0.207991
0.134861 0.332812 0.200417
0.256136 0.332812 0.192843
0.377410 0.332812 0.185269
0.498685 0.332812 0.177695
0.619959 0.332812 0.170122
0.741234 0.332812 0.162548
0.861250 0.332812 0.158750
0.980000 0.332812 0.158750
0.030000 0.433750 0.182512
0.143354 0.433750 0.174938
0.264629 0.433750 0.167364
0.385903 0.433750 0.159790
0.505000 0.433750 0.158750
0.623750 0.433750 0.158750
0.742500 0.433750 0.158750
0.861754 0.433851 0.159153
0.980000 0.434861 0.163192
0.030000 0.534687 0.158750
0.148750 0.534687 0.158750
0.267500 0.534687 0.158750
0.386250 0.534687 0.158750
0.507342 0.535156 0.160623
0.631141 0.536166 0.164663
0.754940 0.537176 0.168702
0.878739 0.538185 0.172742
0.980000 0.539195 0.176781
0.030000 0.635625 0.158750
0.152930 0.636461 0.162094
0.276729 0.637471 0.166133
0.400528 0.638481 0.170173
0.524328 0.639491 0.174212
0.648127 0.640500 0.178252
0.771926 0.641510 0.182291
0.895725 0.642520 0.186330
0.980000 0.643530 0.190370
0.046117 0.739786 0.171643
0.169916 0.740796 0.175683
0.293715 0.741806 0.179722
0.417515 0.742815 0.183762
0.541314 0.743825 0.187801
0.665113 0.744835 0.191840
0.788912 0.745845 0.195880
0.912711 0.746855 0.199919
0.980000 0.747865 0.203959
0.063103 0.844121 0.185232
0.186902 0.845130 0.189272
0.310701 0.846140 0.193311
0.434500 0.847150 0.197350
0.558300 0.848160 0.201390
0.682099 0.849170 0.205429
0.805898 0.850180 0.209469
0.929697 0.851190 0.213508
0.980000 0.852199 0.217547
0.030000 0.030000 0.400606
0.110239 0.030000 0.393032
0.231514 0.030000 0.385458
0.352789 0.030000 0.377884
0.474063 0.030000 0.370310
0.595338 0.030000 0.362736
0.716612 0.030000 0.355162
0.837887 0.030000 0.347589
0.959162 0.030000 0.340015
0.030000 0.130937 0.375127
0.118732 0.130937 0.367553
0.240007 0.130937 0.359979
0.361282 0.130937 0.352405
0.482556 0.130937 0.344831
0.603831 0.130937 0.337257
0.725105 0.130937 0.329683
0.846380 0.130937 0.322110
0.967655 0.130937 0.314536
0.030000 0.231875 0.349648
0.127225 0.231875 0.342074
0.248500 0.231875 0.334500
0.369775 0.231875 0.326926
0.491049 0.231875 0.319352
0.612324 0.231875 0.311778
0.733599 0.231875 0.304204
0.854873 0.231875 0.296631
0.976148 0.231875 0.289057
0.030000 0.332812 0.324169
0.135718 0.332812 0.316595
0.256993 0.332812 0.309021
0.378268 0.332812 0.301447
0.499542 0.332812 0.293873
0.620817 0.332812 0.286299
0.742091 0.332812 0.278726
0.861250 0.332812 0.277500
0.980000 0.332812 0.277500
0.030000 0.433750 0.298690
0.144211 0.433750 0.291116
0.265486 0.433750 0.283542
0.386250 0.433750 0.277500
0.505000 0.433750 0.277500
0.623750 0.433750 0.277500
0.742500 0.433750 0.277500
0.863468 0.434194 0.279275
0.980000 0.435203 0.283314
0.030000 0.534687 0.277500
0.148750 0.534687 0.277500
0.267500 0.534687 0.277500
0.386250 0.534687 0.277500
0.509057 0.535499 0.280745
0.632856 0.536509 0.284785
0.756655 0.537519 0.288824
0.880454 0.538528 0.292863
0.980000 0.539538 0.296903
0.030845 0.635794 0.278176
0.154645 0.636804 0.282216
0.278444 0.637814 0.286255
0.402243 0.638824 0.290295
0.526042 0.639833 0.294334
0.649842 0.640843 0.298373
0.773641 0.641853 0.302413
0.897440 0.642863 0.306452
0.980000 0.643873 0.310492
0.047831 0.740129 0.291765
0.171631 0.741139 0.295805
0.295430 0.742148 0.299844
0.419229 0.743158 0.303883
0.543029 0.744168 0.307923
0.666828 0.745178 0.311962
0.790627 0.746188 0.316002
0.914426 0.747198 0.320041
0.980000 0.748208 0.324080
0.064817 0.844463 0.305354
0.188617 0.845473 0.309393
0.312416 0.846483 0.313433
0.436215 0.847493 0.317472
0.560014 0.848503 0.321512
0.683814 0.849513 0.325551
0.807613 0.850523 0.329590
0.931412 0.851532 0.333630
0.980000 0.852542 0.337669
0.030000 0.030000 0.516784
0.111097 0.030000 0.509210
0.232371 0.030000 0.501636
0.353646 0.030000 0.494062
0.474921 0.030000 0.486488
0.596195 0.030000 0.478914
0.717470 0.030000 0.471340
0.838745 0.030000 0.463766
0.960019 0.030000 0.456193
0.030000 0.130937 0.491305
0.119590 0.130937 0.483731
0.240864 0.130937 0.476157
0.362139 0.130937 0.468583
0.483414 0.130937 0.461009
0.604688 0.130937 0.453435
0.725963 0.130937 0.445861
0.847237 0.130937 0.438287
0.968512 0.130937 0.430714
0.030000 0.231875 0.465826
0.128083 0.231875 0.458252
0.249357 0.231875 0.450678
0.370632 0.231875 0.443104
0.491907 0.231875 0.435530
0.613181 0.231875 0.427956
0.734456 0.231875 0.420382
0.855731 0.231875 0.412808
0.977005 0.231875 0.405235
0.030000 0.332812 0.440347
0.136576 0.332812 0.432773
0.257850 0.332812 0.425199
0.379125 0.332812 0.417625
0.500400 0.332812 0.410051
0.621674 0.332812 0.402477
0.742500 0.332812 0.396250
0.861250 0.332812 0.396250
0.980000 0.332812 0.396250
0.030000 0.433750 0.414868
0.145069 0.433750 0.407294
0.266343 0.433750 0.399720
0.386250 0.433750 0.396250
0.505000 0.433750 0.396250
0.623750 0.433750 0.396250
0.742500 0.433750 0.396250
0.865183 0.434537 0.399396
0.980000 0.435546 0.403436
0.030000 0.534687 0.396250
0.148750 0.534687 0.396250
0.267500 0.534687 0.396250
0.386972 0.534832 0.396828
0.510771 0.535842 0.400867
0.634571 0.536852 0.404906
0.758370 0.537861 0.408946
0.882169 0.538871 0.412985
0.980000 0.539881 0.417025
0.032560 0.636137 0.398298
0.156359 0.637147 0.402338
0.280159 0.638157 0.406377
0.403958 0.639167 0.410416
0.527757 0.640176 0.414456
0.651556 0.641186 0.418495
0.775356 0.642196 0.422535
0.899155 0.643206 0.426574
0.980000 0.644216 0.430613
0.049546 0.740472 0.411887
0.173345 0.741482 0.415926
0.297145 0.742491 0.419966
0.420944 0.743501 0.424005
0.544743 0.744511 0.428045
0.668543 0.745521 0.432084
0.792342 0.746531 0.436123
0.916141 0.747541 0.440163
0.980000 0.748551 0.444202
0.066532 0.844806 0.425476
0.190331 0.845816 0.429515
0.314131 0.846826 0.433555
0.437930 0.847836 0.437594
0.561729 0.848846 0.441633
0.685528 0.849856 0.445673
0.809328 0.850866 0.449712
0.933127 0.851875 0.453752
0.980000 0.852885 0.457791
0.030000 0.030000 0.632962
0.111954 0.030000 0.625388
0.233229 0.030000 0.617814
0.354503 0.030000 0.610240
0.475778 0.030000 0.602666
0.597053 0.030000 0.595092
0.718327 0.030000 0.587518
0.839602 0.030000 0.579944
0.960877 0.030000 0.572371
0.030000 0.130937 0.607483
0.120447 0.130937 0.599909
0.241722 0.130937 0.592335
0.362996 0.130937 0.584761
0.484271 0.130937 0.577187
0.605546 0.130937 0.569613
0.726820 0.130937 0.562039
0.848095 0.130937 0.554465
0.969369 0.130937 0.546891
0.030000 0.231875 0.582004
0.128940 0.231875 0.574430
0.250215 0.231875 0.566856
0.371489 0.231875 0.559282
0.492764 0.231875 0.551708
0.614039 0.231875 0.544134
0.735313 0.231875 0.536560
0.856588 0.231875 0.528986
0.977862 0.231875 0.521413
0.030000 0.332812 0.556525
0.137433 0.332812 0.548951
0.258708 0.332812 0.541377
0.379982 0.332812 0.533803
0.501257 0.332812 0.526229
0.622532 0.332812 0.518655
0.742500 0.332812 0.515000
0.861250 0.332812 0.515000
0.980000 0.332812 0.515000
0.030000 0.433750 0.531045
0.145926 0.433750 0.523472
0.267201 0.433750 0.515898
0.386250 0.433750 0.515000
0.505000 0.433750 0.515000
0.623750 0.433750 0.515000
0.743098 0.433870 0.515479
0.866898 0.434880 0.519518
0.980000 0.435889 0.523558
0.030000 0.534687 0.515000
0.148750 0.534687 0.515000
0.267500 0.534687 0.515000
0.388687 0.535175 0.516949
0.512486 0.536185 0.520989
0.636285 0.537195 0.525028
0.760085 0.538204 0.529068
0.883884 0.539214 0.533107
0.980000 0.540224 0.537146
0.034275 0.636480 0.518420
0.158074 0.637490 0.522459
0.281873 0.638500 0.526499
0.405673 0.639510 0.530538
0.529472 0.640519 0.534578
0.653271 0.641529 0.538617
0.777070 0.642539 0.542656
0.900870 0.643549 0.546696
0.980000 0.644559 0.550735
0.051261 0.740815 0.532009
0.175060 0.741825 0.536048
0.298859 0.742834 0.540088
0.422659 0.743844 0.544127
0.546458 0.744854 0.548166
0.670257 0.745864 0.552206
0.794056 0.746874 0.556245
0.917856 0.747884 0.560285
0.980000 0.748893 0.564324
0.068247 0.845149 0.545598
0.192046 0.846159 0.549637
0.315846 0.847169 0.553676
0.439645 0.848179 0.557716
0.563444 0.849189 0.561755
0.687243 0.850199 0.565795
0.811042 0.851208 0.569834
0.934842 0.852218 0.573873
0.980000 0.853228 0.577913
0.030000 0.030000 0.749139
0.112811 0.030000 0.741565
0.234086 0.030000 0.733992
0.355361 0.030000 0.726418
0.476635 0.030000 0.718844
0.597910 0.030000 0.711270
0.719185 0.030000 0.703696
0.840459 0.030000 0.696122
0.961734 0.030000 0.688548
0.030000 0.130937 0.723660
0.121304 0.130937 0.716087
0.242579 0.130937 0.708513
0.363854 0.130937 0.700939
0.485128 0.130937 0.693365
0.606403 0.130937 0.685791
0.727678 0.130937 0.678217
0.848952 0.130937 0.670643
0.970227 0.130937 0.663069
0.030000 0.231875 0.698181
0.129797 0.231875 0.690607
0.251072 0.231875 0.683034
0.372347 0.231875 0.675460
0.493621 0.231875 0.667886
0.614896 0.231875 0.660312
0.736171 0.231875 0.652738
0.857445 0.231875 0.645164
0.978720 0.231875 0.637590
0.030000 0.332812 0.672702
0.138290 0.332812 0.665129
0.259565 0.332812 0.657555
0.380840 0.332812 0.649981
0.502114 0.332812 0.642407
0.623389 0.332812 0.634833
0.742500 0.332812 0.633750
0.861250 0.332812 0.633750
0.980000 0.332812 0.633750
0.030000 0.433750 0.647223
0.146784 0.433750 0.639650
0.267500 0.433750 0.633750
0.386250 0.433750 0.633750
0.505000 0.433750 0.633750
0.623750 0.433750 0.633750
0.744813 0.434213 0.635601
0.868613 0.435222 0.639640
0.980000 0.436232 0.643679
0.030000 0.534687 0.633750
0.148750 0.534687 0.633750
0.267500 0.534687 0.633750
0.390401 0.535518 0.637071
0.514201 0.536528 0.641111
0.638000 0.537538 0.645150
0.761799 0.538547 0.649189
0.885598 0.539557 0.653229
0.980000 0.540567 0.657268
0.035990 0.636823 0.638542
0.159789 0.637833 0.642581
0.283588 0.638843 0.646621
0.407388 0.639852 0.650660
0.531187 0.640862 0.654699
0.654986 0.641872 0.658739
0.778785 0.642882 0.662778
0.902584 0.643892 0.666818
0.980000 0.644902 0.670857
0.052976 0.741158 0.652131
0.176775 0.742167 0.656170
0.300574 0.743177 0.660209
0.424373 0.744187 0.664249
0.548173 0.745197 0.668288
0.671972 0.746207 0.672328
0.795771 0.747217 0.676367
0.919570 0.748227 0.680406
0.980000 0.749236 0.684446
0.069962 0.845492 0.665719
0.193761 0.846502 0.669759
0.317560 0.847512 0.673798
0.441360 0.848522 0.677838
0.565159 0.849532 0.681877
0.688958 0.850542 0.685916
0.812757 0.851551 0.689956
0.936556 0.852561 0.693995
0.980000 0.853571 0.698035
0.030000 0.030000 0.865317
0.113669 0.030000 0.857743
0.234943 0.030000 0.850169
0.356218 0.030000 0.842596
0.477493 0.030000 0.835022
0.598767 0.030000 0.827448
0.720042 0.030000 0.819874
0.841317 0.030000 0.812300
0.962591 0.030000 0.804726
0.030000 0.130937 0.839838
0.122162 0.130937 0.832264
0.243437 0.130937 0.824690
0.364711 0.130937 0.817117
0.485986 0.130937 0.809543
0.607260 0.130937 0.801969
0.728535 0.130937 0.794395
0.849810 0.130937 0.786821
0.971084 0.130937 0.779247
0.030000 0.231875 0.814359
0.130655 0.231875 0.806785
0.251930 0.231875 0.799212
0.373204 0.231875 0.791638
0.494479 0.231875 0.784064
0.615753 0.231875 0.776490
0.737028 0.231875 0.768916
0.858303 0.231875 0.761342
0.979577 0.231875 0.753768
0.030000 0.332812 0.788880
0.139148 0.332812 0.781306
0.260423 0.332812 0.773732
0.381697 0.332812 0.766159
0.502972 0.332812 0.758585
0.623750 0.332812 0.752500
0.742500 0.332812 0.752500
0.861250 0.332812 0.752500
0.980000 0.332812 0.752500
0.030000 0.433750 0.763401
0.147641 0.433750 0.755827
0.267500 0.433750 0.752500
0.386250 0.433750 0.752500
0.505000 0.433750 0.752500
0.623750 0.433750 0.752500
0.746528 0.434556 0.755722
0.870327 0.435565 0.759762
0.980000 0.436575 0.763801
0.030000 0.534687 0.752500
0.148750 0.534687 0.752500
0.268317 0.534851 0.753154
0.392116 0.535861 0.757193
0.515915 0.536871 0.761232
0.639715 0.537880 0.765272
0.763514 0.538890 0.769311
0.887313 0.539900 0.773351
0.980000 0.540910 0.777390
0.037704 0.637166 0.758664
0.161504 0.638176 0.762703
0.285303 0.639186 0.766742
0.409102 0.640195 0.770782
0.532902 0.641205 0.774821
0.656701 0.642215 0.778861
0.780500 0.643225 0.782900
0.904299 0.644235 0.786939
0.980000 0.645245 0.790979
0.054690 0.741501 0.772252
0.178490 0.742510 0.776292
0.302289 0.743520 0.780331
0.426088 0.744530 0.784371
0.549887 0.745540 0.788410
0.673687 0.746550 0.792449
0.797486 0.747560 0.796489
0.921285 0.748570 0.800528
0.980000 0.749579 0.804568
0.071676 0.845835 0.785841
0.195476 0.846845 0.789881
0.319275 0.847855 0.793920
0.443074 0.848865 0.797959
0.566874 0.849875 0.801999
0.690673 0.850885 0.806038
0.814472 0.851894 0.810078
0.938271 0.852904 0.814117
0.980000 0.853914 0.818156
0.030000 0.030000 0.981495
0.114526 0.030000 0.973921
0.235801 0.030000 0.966347
0.357075 0.030000 0.958774
0.478350 0.030000 0.951200
0.599625 0.030000 0.943626
0.720899 0.030000 0.936052
0.842174 0.030000 0.928478
0.963449 0.030000 0.920904
0.030000 0.130937 0.956016
0.123019 0.130937 0.948442
0.244294 0.130937 0.940868
0.365568 0.130937 0.933295
0.486843 0.130937 0.925721
0.608118 0.130937 0.918147
0.729392 0.130937 0.910573
0.850667 0.130937 0.902999
0.971942 0.130937 0.895425
0.030000 0.231875 0.930537
0.131512 0.231875 0.922963
0.252787 0.231875 0.915389
0.374061 0.231875 0.907815
0.495336 0.231875 0.900242
0.616611 0.231875 0.892668
0.737885 0.231875 0.885094
0.859160 0.231875 0.877520
0.980000 0.231875 0.871250
0.030000 0.332812 0.905058
0.140005 0.332812 0.897484
0.261280 0.332812 0.889910
0.382555 0.332812 0.882337
0.503829 0.332812 0.874763
0.623750 0.332812 0.871250
0.742500 0.332812 0.871250
0.861250 0.332812 0.871250
0.980000 0.332812 0.871250
0.030000 0.433750 0.879579
0.148498 0.433750 0.872005
0.267500 0.433750 0.871250
0.386250 0.433750 0.871250
0.505000 0.433750 0.871250
0.624444 0.433889 0.871805
0.748243 0.434899 0.875844
0.872042 0.435908 0.879884
0.980000 0.436918 0.883923
0.030000 0.534687 0.871250
0.148750 0.534687 0.871250
0.270032 0.535194 0.873275
0.393831 0.536204 0.877315
0.517630 0.537214 0.881354
0.641429 0.538223 0.885394
0.765229 0.539233 0.889433
0.889028 0.540243 0.893472
0.980000 0.541253 0.897512
0.039419 0.637509 0.878785
0.163218 0.638519 0.882825
0.287018 0.639529 0.886864
0.410817 0.640538 0.890904
0.534616 0.641548 0.894943
0.658416 0.642558 0.898982
0.782215 0.643568 0.903022
0.906014 0.644578 0.907061
0.980000 0.645588 0.911101
0.056405 0.741844 0.892374
0.180204 0.742853 0.896414
0.304004 0.743863 0.900453
0.427803 0.744873 0.904492
0.551602 0.745883 0.908532
0.675401 0.746893 0.912571
0.799201 0.747903 0.916611
0.923000 0.748912 0.920650
0.980000 0.749922 0.924689
0.073391 0.846178 0.905963
0.197190 0.847188 0.910002
0.320990 0.848198 0.914042
0.444789 0.849208 0.918081
0.568588 0.850218 0.922121
0.692387 0.851227 0.926160
0.816187 0.852237 0.930199
0.939986 0.853247 0.934239
0.980000 0.854257 0.938278
0.030000 0.030000 0.990000
0.115384 0.030000 0.990000
0.236658 0.030000 0.990000
0.357933 0.030000 0.990000
0.479208 0.030000 0.990000
0.600482 0.030000 0.990000
0.721757 0.030000 0.990000
0.843031 0.030000 0.990000
0.964306 0.030000 0.990000
0.030000 0.130937 0.990000
0.123877 0.130937 0.990000
0.245151 0.130937 0.990000
0.366426 0.130937 0.990000
0.487700 0.130937 0.990000
0.608975 0.130937 0.990000
0.730250 0.130937 0.990000
0.851524 0.130937 0.990000
0.972799 0.130937 0.990000
0.030000 0.231875 0.990000
0.132370 0.231875 0.990000
0.253644 0.231875 0.990000
0.374919 0.231875 0.990000
0.496193 0.231875 0.990000
0.617468 0.231875 0.990000
0.738743 0.231875 0.990000
0.860017 0.231875 0.990000
0.980000 0.231875 0.990000
0.030000 0.332812 0.990000
0.140863 0.332812 0.990000
0.262137 0.332812 0.990000
0.383412 0.332812 0.990000
0.504686 0.332812 0.990000
0.623750 0.332812 0.990000
0.742500 0.332812 0.990000
0.861250 0.332812 0.990000
0.980000 0.332927 0.990000
0.030000 0.433750 0.990000
0.148750 0.433750 0.990000
0.267500 0.433750 0.990000
0.386250 0.433750 0.990000
0.505000 0.433750 0.990000
0.626158 0.434232 0.990000
0.749958 0.435241 0.990000
0.873757 0.436251 0.990000
0.980000 0.437261 0.990000
0.030000 0.534687 0.990000
0.148750 0.534687 0.990000
0.271747 0.535537 0.990000
0.395546 0.536547 0.990000
0.519345 0.537556 0.990000
0.643144 0.538566 0.990000
0.766944 0.539576 0.990000
0.890743 0.540586 0.990000
0.980000 0.541596 0.990000
0.041134 0.637852 0.990000
0.164933 0.638862 0.990000
0.288732 0.639871 0.990000
0.412532 0.640881 0.990000
0.536331 0.641891 0.990000
0.660130 0.642901 0.990000
0.783930 0.643911 0.990000
0.907729 0.644921 0.990000
0.980000 0.645931 0.990000
0.058120 0.742187 0.990000
0.181919 0.743196 0.990000
0.305719 0.744206 0.990000
0.429518 0.745216 0.990000
0.553317 0.746226 0.990000
0.677116 0.747236 0.990000
0.800915 0.748246 0.990000
0.924715 0.749255 0.990000
0.980000 0.750265 0.990000
0.075106 0.846521 0.990000
0.198905 0.847531 0.990000
0.322704 0.848541 0.990000
0.446504 0.849551 0.990000
0.570303 0.850561 0.990000
0.694102 0.851570 0.990000
0.817901 0.852580 0.990000
0.941701 0.853590 0.990000
0.980000 0.854600 0.990000
