app/src/main/assets/luts/Neon_Night_Tokyo.cube
TITLE "Neon Night Tokyo"
LUT_3D_SIZE 5
DOMAIN_MIN 0.0 0.0 0.0
DOMAIN_MAX 1.0 1.0 1.0
0.030000 0.030000 0.168250
0.229799 0.030000 0.153102
0.472348 0.030000 0.137954
0.714898 0.030000 0.122807
0.957447 0.030000 0.107659
0.030000 0.231875 0.117292
0.246785 0.231875 0.102144
0.489335 0.231875 0.086996
0.731884 0.231875 0.071849
0.974433 0.231875 0.056701
0.030000 0.433750 0.066334
0.263771 0.433750 0.051186
0.505000 0.433750 0.040000
0.742500 0.433750 0.040000
0.980000 0.434518 0.043070
0.030000 0.635625 0.040000
0.275014 0.637128 0.046012
0.522613 0.639148 0.054090
0.770212 0.641167 0.062169
0.980000 0.643187 0.070248
0.061388 0.843778 0.065110
0.308986 0.845797 0.073189
0.556585 0.847817 0.081268
0.804183 0.849837 0.089347
0.980000 0.851856 0.097426
0.030000 0.030000 0.400606
0.231514 0.030000 0.385458
0.474063 0.030000 0.370310
0.716612 0.030000 0.355162
0.959162 0.030000 0.340015
0.030000 0.231875 0.349648
0.248500 0.231875 0.334500
0.491049 0.231875 0.319352
0.733599 0.231875 0.304204
0.976148 0.231875 0.289057
0.030000 0.433750 0.298690
0.265486 0.433750 0.283542
0.505000 0.433750 0.277500
0.742500 0.433750 0.277500
0.980000 0.435203 0.283314
0.030845 0.635794 0.278176
0.278444 0.637814 0.286255
0.526042 0.639833 0.294334
0.773641 0.641853 0.302413
0.980000 0.643873 0.310492
0.064817 0.844463 0.305354
0.312416 0.846483 0.313433
0.560014 0.848503 0.321512
0.807613 0.850523 0.329590
0.980000 0.852542 0.337669
0.030000 0.030000 0.632962
0.233229 0.030000 0.617814
0.475778 0.030000 0.602666
0.718327 0.030000 0.587518
0.960877 0.030000 0.572371
0.030000 0.231875 0.582004
0.250215 0.231875 0.566856
0.492764 0.231875 0.551708
0.735313 0.231875 0.536560
0.977862 0.231875 0.521413
0.030000 0.433750 0.531045
0.267201 0.433750 0.515898
0.505000 0.433750 0.515000
0.743098 0.433870 0.515479
0.980000 0.435889 0.523558
0.034275 0.636480 0.518420
0.281873 0.638500 0.526499
0.529472 0.640519 0.534578
0.777070 0.642539 0.542656
0.980000 0.644559 0.550735
0.068247 0.845149 0.545598
0.315846 0.847169 0.553676
0.563444 0.849189 0.561755
0.811042 0.851208 0.569834
0.980000 0.853228 0.577913
0.030000 0.030000 0.865317
0.234943 0.030000 0.850169
0.477493 0.030000 0.835022
0.720042 0.030000 0.819874
0.962591 0.030000 0.804726
0.030000 0.231875 0.814359
0.251930 0.231875 0.799212
0.494479 0.231875 0.784064
0.737028 0.231875 0.768916
0.979577 0.231875 0.753768
0.030000 0.433750 0.763401
0.267500 0.433750 0.752500
0.505000 0.433750 0.752500
0.746528 0.434556 0.755722
0.980000 0.436575 0.763801
0.037704 0.637166 0.758664
0.285303 0.639186 0.766742
0.532902 0.641205 0.774821
0.780500 0.643225 0.782900
0.980000 0.645245 0.790979
0.071676 0.845835 0.785841
0.319275 0.847855 0.793920
0.566874 0.849875 0.801999
0.814472 0.851894 0.810078
0.980000 0.853914 0.818156
0.030000 0.030000 0.990000
0.236658 0.030000 0.990000
0.479208 0.030000 0.990000
0.721757 0.030000 0.990000
0.964306 0.030000 0.990000
0.030000 0.231875 0.990000
0.253644 0.231875 0.990000
0.496193 0.231875 0.990000
0.738743 0.231875 0.990000
0.980000 0.231875 0.990000
0.030000 0.433750 0.990000
0.267500 0.433750 0.990000
0.505000 0.433750 0.990000
0.749958 0.435241 0.990000
0.980000 0.437261 0.990000
0.041134 0.637852 0.990000
0.288732 0.639871 0.990000
0.536331 0.641891 0.990000
0.783930 0.643911 0.990000
0.980000 0.645931 0.990000
0.075106 0.846521 0.990000
0.322704 0.848541 0.990000
0.570303 0.850561 0.990000
0.817901 0.852580 0.990000
0.980000 0.854600 0.990000
