app/src/main/assets/luts/Neon_Night_Tokyo.cube
TITLE "Neon Night Tokyo"
LUT_3D_SIZE 17
DOMAIN_MIN 0.0 0.0 0.0
DOMAIN_MAX 1.0 1.0 1.0
0.030000 0.030000 0.168250
0.047887 0.030000 0.164463
0.108525 0.030000 0.160676
0.169162 0.030000 0.156889
0.229799 0.030000 0.153102
0.290437 0.030000 0.149315
0.351074 0.030000 0.145528
0.411711 0.030000 0.141741
0.472348 0.030000 0.137954
0.532986 0.030000 0.134168
0.593623 0.030000 0.130381
0.654260 0.030000 0.126594
0.714898 0.030000 0.122807
0.775535 0.030000 0.119020
0.836172 0.030000 0.115233
0.896810 0.030000 0.111446
0.957447 0.030000 0.107659
0.030000 0.080469 0.155510
0.052134 0.080469 0.151724
0.112771 0.080469 0.147937
0.173408 0.080469 0.144150
0.234046 0.080469 0.140363
0.294683 0.080469 0.136576
0.355320 0.080469 0.132789
0.415958 0.080469 0.129002
0.476595 0.080469 0.125215
0.537232 0.080469 0.121428
0.597870 0.080469 0.117641
0.658507 0.080469 0.113854
0.719144 0.080469 0.110067
0.779782 0.080469 0.106280
0.840419 0.080469 0.102493
0.901056 0.080469 0.098706
0.961693 0.080469 0.094919
0.030000 0.130937 0.142771
0.056380 0.130937 0.138984
0.117018 0.130937 0.135197
0.177655 0.130937 0.131410
0.238292 0.130937 0.127623
0.298930 0.130937 0.123836
0.359567 0.130937 0.120049
0.420204 0.130937 0.116262
0.480841 0.130937 0.112476
0.541479 0.130937 0.108689
0.602116 0.130937 0.104902
0.662753 0.130937 0.101115
0.723391 0.130937 0.097328
0.784028 0.130937 0.093541
0.844665 0.130937 0.089754
0.905303 0.130937 0.085967
0.965940 0.130937 0.082180
0.030000 0.181406 0.130031
0.060627 0.181406 0.126245
0.121264 0.181406 0.122458
0.181901 0.181406 0.118671
0.242539 0.181406 0.114884
0.303176 0.181406 0.111097
0.363813 0.181406 0.107310
0.424451 0.181406 0.103523
0.485088 0.181406 0.099736
0.545725 0.181406 0.095949
0.606363 0.181406 0.092162
0.667000 0.181406 0.088375
0.727637 0.181406 0.084588
0.788275 0.181406 0.080801
0.848912 0.181406 0.077014
0.909549 0.181406 0.073227
0.970187 0.181406 0.069441
0.030000 0.231875 0.117292
0.064873 0.231875 0.113505
0.125511 0.231875 0.109718
0.186148 0.231875 0.105931
0.246785 0.231875 0.102144
0.307423 0.231875 0.098357
0.368060 0.231875 0.094570
0.428697 0.231875 0.090783
0.489335 0.231875 0.086996
0.549972 0.231875 0.083210
0.610609 0.231875 0.079423
0.671246 0.231875 0.075636
0.731884 0.231875 0.071849
0.792521 0.231875 0.068062
0.853158 0.231875 0.064275
0.913796 0.231875 0.060488
0.974433 0.231875 0.056701
0.030000 0.282344 0.104553
0.069120 0.282344 0.100766
0.129757 0.282344 0.096979
0.190394 0.282344 0.093192
0.251032 0.282344 0.089405
0.311669 0.282344 0.085618
0.372306 0.282344 0.081831
0.432944 0.282344 0.078044
0.493581 0.282344 0.074257
0.554218 0.282344 0.070470
0.614856 0.282344 0.066683
0.675493 0.282344 0.062896
0.736130 0.282344 0.059109
0.796768 0.282344 0.055322
0.857405 0.282344 0.051535
0.918042 0.282344 0.047748
0.978680 0.282344 0.043962
0.030000 0.332812 0.091813
0.073366 0.332812 0.088026
0.134004 0.332812 0.084239
0.194641 0.332812 0.080452
0.255278 0.332812 0.076665
0.315916 0.332812 0.072878
0.376553 0.332812 0.069091
0.437190 0.332812 0.065304
0.497827 0.332812 0.061518
0.558465 0.332812 0.057731
0.619102 0.332812 0.053944
0.679739 0.332812 0.050157
0.740377 0.332812 0.046370
0.801014 0.332812 0.042583
0.861250 0.332812 0.040000
0.920625 0.332812 0.040000
0.980000 0.332812 0.040000
0.030000 0.383281 0.079074
0.077613 0.383281 0.075287
0.138250 0.383281 0.071500
0.198887 0.383281 0.067713
0.259525 0.383281 0.063926
0.320162 0.383281 0.060139
0.380799 0.383281 0.056352
0.441437 0.383281 0.052565
0.502074 0.383281 0.048778
0.562711 0.383281 0.044991
0.623349 0.383281 0.041204
0.683125 0.383281 0.040000
0.742500 0.383281 0.040000
0.801875 0.383281 0.040000
0.861250 0.383281 0.040000
0.920625 0.383281 0.040000
0.980000 0.383281 0.040000
0.030000 0.433750 0.066334
0.081859 0.433750 0.062547
0.142497 0.433750 0.058760
0.203134 0.433750 0.054973
0.263771 0.433750 0.051186
0.324409 0.433750 0.047399
0.385046 0.433750 0.043612
0.445625 0.433750 0.040000
0.505000 0.433750 0.040000
0.564375 0.433750 0.040000
0.623750 0.433750 0.040000
0.683125 0.433750 0.040000
0.742500 0.433750 0.040000
0.801875 0.433750 0.040000
0.861250 0.433750 0.040000
0.921938 0.434013 0.041051
0.980000 0.434518 0.043070
0.030000 0.484219 0.053595
0.086106 0.484219 0.049808
0.146743 0.484219 0.046021
0.207380 0.484219 0.042234
0.267500 0.484219 0.040000
0.326875 0.484219 0.040000
0.386250 0.484219 0.040000
0.445625 0.484219 0.040000
0.505000 0.484219 0.040000
0.564375 0.484219 0.040000
0.623750 0.484219 0.040000
0.683125 0.484219 0.040000
0.744732 0.484665 0.041786
0.806632 0.485170 0.043806
0.868532 0.485675 0.045825
0.930431 0.486180 0.047845
0.980000 0.486685 0.049865
0.030000 0.534687 0.040855
0.089375 0.534687 0.040000
0.148750 0.534687 0.040000
0.208125 0.534687 0.040000
0.267500 0.534687 0.040000
0.326875 0.534687 0.040000
0.386250 0.534687 0.040000
0.445625 0.534687 0.040000
0.505627 0.534813 0.040502
0.567527 0.535318 0.042521
0.629426 0.535823 0.044541
0.691326 0.536328 0.046561
0.753225 0.536833 0.048580
0.815125 0.537338 0.050600
0.877025 0.537842 0.052620
0.938924 0.538347 0.054639
0.980000 0.538852 0.056659
0.030000 0.585156 0.040000
0.089375 0.585156 0.040000
0.148750 0.585156 0.040000
0.208125 0.585156 0.040000
0.267500 0.585156 0.040000
0.328421 0.585465 0.041237
0.390321 0.585970 0.043257
0.452220 0.586475 0.045276
0.514120 0.586980 0.047296
0.576020 0.587485 0.049316
0.637919 0.587990 0.051335
0.699819 0.588495 0.053355
0.761718 0.589000 0.055375
0.823618 0.589505 0.057395
0.885518 0.590010 0.059414
0.947417 0.590515 0.061434
0.980000 0.591020 0.063454
0.030000 0.635625 0.040000
0.089375 0.635625 0.040000
0.151215 0.636118 0.041972
0.213115 0.636623 0.043992
0.275014 0.637128 0.046012
0.336914 0.637633 0.048031
0.398814 0.638138 0.050051
0.460713 0.638643 0.052071
0.522613 0.639148 0.054090
0.584513 0.639653 0.056110
0.646412 0.640157 0.058130
0.708312 0.640662 0.060149
0.770212 0.641167 0.062169
0.832111 0.641672 0.064189
0.894011 0.642177 0.066209
0.955910 0.642682 0.068228
0.980000 0.643187 0.070248
0.035909 0.687276 0.044727
0.097809 0.687780 0.046747
0.159708 0.688285 0.048767
0.221608 0.688790 0.050786
0.283507 0.689295 0.052806
0.345407 0.689800 0.054826
0.407307 0.690305 0.056845
0.469206 0.690810 0.058865
0.531106 0.691315 0.060885
0.593006 0.691820 0.062904
0.654905 0.692325 0.064924
0.716805 0.692830 0.066944
0.778705 0.693335 0.068964
0.840604 0.693840 0.070983
0.902504 0.694344 0.073003
0.964403 0.694849 0.075023
0.980000 0.695354 0.077042
0.044402 0.739443 0.051522
0.106302 0.739948 0.053541
0.168201 0.740453 0.055561
0.230101 0.740958 0.057581
0.292000 0.741463 0.059600
0.353900 0.741968 0.061620
0.415800 0.742472 0.063640
0.477699 0.742977 0.065659
0.539599 0.743482 0.067679
0.601499 0.743987 0.069699
0.663398 0.744492 0.071719
0.725298 0.744997 0.073738
0.787197 0.745502 0.075758
0.849097 0.746007 0.077778
0.910997 0.746512 0.079797
0.972896 0.747017 0.081817
0.980000 0.747522 0.083837
0.052895 0.791610 0.058316
0.114795 0.792115 0.060336
0.176694 0.792620 0.062355
0.238594 0.793125 0.064375
0.300493 0.793630 0.066395
0.362393 0.794135 0.068414
0.424293 0.794640 0.070434
0.486192 0.795145 0.072454
0.548092 0.795650 0.074474
0.609992 0.796155 0.076493
0.671891 0.796659 0.078513
0.733791 0.797164 0.080533
0.795690 0.797669 0.082552
0.857590 0.798174 0.084572
0.919490 0.798679 0.086592
0.980000 0.799184 0.088611
0.980000 0.799689 0.090631
0.061388 0.843778 0.065110
0.123288 0.844283 0.067130
0.185187 0.844787 0.069150
0.247087 0.845292 0.071169
0.308986 0.845797 0.073189
0.370886 0.846302 0.075209
0.432786 0.846807 0.077229
0.494685 0.847312 0.079248
0.556585 0.847817 0.081268
0.618485 0.848322 0.083288
0.680384 0.848827 0.085307
0.742284 0.849332 0.087327
0.804183 0.849837 0.089347
0.866083 0.850342 0.091366
0.927983 0.850847 0.093386
0.980000 0.851351 0.095406
0.980000 0.851856 0.097426
0.030000 0.030000 0.226339
0.048316 0.030000 0.222552
0.108953 0.030000 0.218765
0.169591 0.030000 0.214978
0.230228 0.030000 0.211191
0.290865 0.030000 0.207404
0.351503 0.030000 0.203617
0.412140 0.030000 0.199830
0.472777 0.030000 0.196043
0.533415 0.030000 0.192256
0.594052 0.030000 0.188470
0.654689 0.030000 0.184683
0.715326 0.030000 0.180896
0.775964 0.030000 0.177109
0.836601 0.030000 0.173322
0.897238 0.030000 0.169535
0.957876 0.030000 0.165748
0.030000 0.080469 0.213599
0.052562 0.080469 0.209812
0.113200 0.080469 0.206026
0.173837 0.080469 0.202239
0.234474 0.080469 0.198452
0.295112 0.080469 0.194665
0.355749 0.080469 0.190878
0.416386 0.080469 0.187091
0.477024 0.080469 0.183304
0.537661 0.080469 0.179517
0.598298 0.080469 0.175730
0.658936 0.080469 0.171943
0.719573 0.080469 0.168156
0.780210 0.080469 0.164369
0.840848 0.080469 0.160582
0.901485 0.080469 0.156795
0.962122 0.080469 0.153008
0.030000 0.130937 0.200860
0.056809 0.130937 0.197073
0.117446 0.130937 0.193286
0.178084 0.130937 0.189499
0.238721 0.130937 0.185712
0.299358 0.130937 0.181925
0.359996 0.130937 0.178138
0.420633 0.130937 0.174351
0.481270 0.130937 0.170564
0.541908 0.130937 0.166778
0.602545 0.130937 0.162991
0.663182 0.130937 0.159204
0.723819 0.130937 0.155417
0.784457 0.130937 0.151630
0.845094 0.130937 0.147843
0.905731 0.130937 0.144056
0.966369 0.130937 0.140269
0.030000 0.181406 0.188120
0.061055 0.181406 0.184334
0.121693 0.181406 0.180547
0.182330 0.181406 0.176760
0.242967 0.181406 0.172973
0.303605 0.181406 0.169186
0.364242 0.181406 0.165399
0.424879 0.181406 0.161612
0.485517 0.181406 0.157825
0.546154 0.181406 0.154038
0.606791 0.181406 0.150251
0.667429 0.181406 0.146464
0.728066 0.181406 0.142677
0.788703 0.181406 0.138890
0.849341 0.181406 0.135103
0.909978 0.181406 0.131316
0.970615 0.181406 0.127529
0.030000 0.231875 0.175381
0.065302 0.231875 0.171594
0.125939 0.231875 0.167807
0.186577 0.231875 0.164020
0.247214 0.231875 0.160233
0.307851 0.231875 0.156446
0.368489 0.231875 0.152659
0.429126 0.231875 0.148872
0.489763 0.231875 0.145085
0.550400 0.231875 0.141298
0.611038 0.231875 0.137512
0.671675 0.231875 0.133725
0.732312 0.231875 0.129938
0.792950 0.231875 0.126151
0.853587 0.231875 0.122364
0.914224 0.231875 0.118577
0.974862 0.231875 0.114790
0.030000 0.282344 0.162641
0.069548 0.282344 0.158854
0.130186 0.282344 0.155068
0.190823 0.282344 0.151281
0.251460 0.282344 0.147494
0.312098 0.282344 0.143707
0.372735 0.282344 0.139920
0.433372 0.282344 0.136133
0.494010 0.282344 0.132346
0.554647 0.282344 0.128559
0.615284 0.282344 0.124772
0.675922 0.282344 0.120985
0.736559 0.282344 0.117198
0.797196 0.282344 0.113411
0.857834 0.282344 0.109624
0.918471 0.282344 0.105837
0.979108 0.282344 0.102050
0.030000 0.332812 0.149902
0.073795 0.332812 0.146115
0.134432 0.332812 0.142328
0.195070 0.332812 0.138541
0.255707 0.332812 0.134754
0.316344 0.332812 0.130967
0.376982 0.332812 0.127180
0.437619 0.332812 0.123393
0.498256 0.332812 0.119606
0.558893 0.332812 0.115819
0.619531 0.332812 0.112033
0.680168 0.332812 0.108246
0.740805 0.332812 0.104459
0.801443 0.332812 0.100672
0.861250 0.332812 0.099375
0.920625 0.332812 0.099375
0.980000 0.332812 0.099375
0.030000 0.383281 0.137162
0.078041 0.383281 0.133376
0.138679 0.383281 0.129589
0.199316 0.383281 0.125802
0.259953 0.383281 0.122015
0.320591 0.383281 0.118228
0.381228 0.383281 0.114441
0.441865 0.383281 0.110654
0.502503 0.383281 0.106867
0.563140 0.383281 0.103080
0.623750 0.383281 0.099375
0.683125 0.383281 0.099375
0.742500 0.383281 0.099375
0.801875 0.383281 0.099375
0.861250 0.383281 0.099375
0.920625 0.383281 0.099375
0.980000 0.383281 0.099375
0.030000 0.433750 0.124423
0.082288 0.433750 0.120636
0.142925 0.433750 0.116849
0.203563 0.433750 0.113062
0.264200 0.433750 0.109275
0.324837 0.433750 0.105488
0.385475 0.433750 0.101701
0.445625 0.433750 0.099375
0.505000 0.433750 0.099375
0.564375 0.433750 0.099375
0.623750 0.433750 0.099375
0.683125 0.433750 0.099375
0.742500 0.433750 0.099375
0.801875 0.433750 0.099375
0.861250 0.433750 0.099375
0.922796 0.434184 0.101112
0.980000 0.434689 0.103131
0.030000 0.484219 0.111683
0.086534 0.484219 0.107897
0.147172 0.484219 0.104110
0.207809 0.484219 0.100323
0.267500 0.484219 0.099375
0.326875 0.484219 0.099375
0.386250 0.484219 0.099375
0.445625 0.484219 0.099375
0.505000 0.484219 0.099375
0.564375 0.484219 0.099375
0.623750 0.484219 0.099375
0.683690 0.484332 0.099827
0.745590 0.484837 0.101847
0.807489 0.485342 0.103867
0.869389 0.485847 0.105886
0.931289 0.486351 0.107906
0.980000 0.486856 0.109926
0.030000 0.534687 0.099375
0.089375 0.534687 0.099375
0.148750 0.534687 0.099375
0.208125 0.534687 0.099375
0.267500 0.534687 0.099375
0.326875 0.534687 0.099375
0.386250 0.534687 0.099375
0.445625 0.534687 0.099375
0.506484 0.534984 0.100562
0.568384 0.535489 0.102582
0.630284 0.535994 0.104602
0.692183 0.536499 0.106622
0.754083 0.537004 0.108641
0.815983 0.537509 0.110661
0.877882 0.538014 0.112681
0.939782 0.538519 0.114700
0.980000 0.539024 0.116720
0.030000 0.585156 0.099375
0.089375 0.585156 0.099375
0.148750 0.585156 0.099375
0.208125 0.585156 0.099375
0.267500 0.585156 0.099375
0.329278 0.585637 0.101298
0.391178 0.586142 0.103317
0.453078 0.586647 0.105337
0.514977 0.587152 0.107357
0.576877 0.587657 0.109377
0.638777 0.588162 0.111396
0.700676 0.588666 0.113416
0.762576 0.589171 0.115436
0.824475 0.589676 0.117455
0.886375 0.590181 0.119475
0.948275 0.590686 0.121495
0.980000 0.591191 0.123514
0.030000 0.635625 0.099375
0.090173 0.635785 0.100013
0.152073 0.636290 0.102033
0.213972 0.636794 0.104053
0.275872 0.637299 0.106072
0.337772 0.637804 0.108092
0.399671 0.638309 0.110112
0.461571 0.638814 0.112132
0.523470 0.639319 0.114151
0.585370 0.639824 0.116171
0.647270 0.640329 0.118191
0.709169 0.640834 0.120210
0.771069 0.641339 0.122230
0.832969 0.641844 0.124250
0.894868 0.642349 0.126270
0.956768 0.642854 0.128289
0.980000 0.643358 0.130309
0.036766 0.687447 0.104788
0.098666 0.687952 0.106808
0.160566 0.688457 0.108827
0.222465 0.688962 0.110847
0.284365 0.689467 0.112867
0.346264 0.689972 0.114887
0.408164 0.690477 0.116906
0.470064 0.690981 0.118926
0.531963 0.691486 0.120946
0.593863 0.691991 0.122965
0.655763 0.692496 0.124985
0.717662 0.693001 0.127005
0.779562 0.693506 0.129024
0.841461 0.694011 0.131044
0.903361 0.694516 0.133064
0.965261 0.695021 0.135084
0.980000 0.695526 0.137103
0.045259 0.739614 0.111582
0.107159 0.740119 0.113602
0.169059 0.740624 0.115622
0.230958 0.741129 0.117642
0.292858 0.741634 0.119661
0.354757 0.742139 0.121681
0.416657 0.742644 0.123701
0.478557 0.743149 0.125720
0.540456 0.743654 0.127740
0.602356 0.744159 0.129760
0.664256 0.744664 0.131779
0.726155 0.745169 0.133799
0.788055 0.745673 0.135819
0.849954 0.746178 0.137839
0.911854 0.746683 0.139858
0.973754 0.747188 0.141878
0.980000 0.747693 0.143898
0.053752 0.791782 0.118377
0.115652 0.792287 0.120397
0.177552 0.792792 0.122416
0.239451 0.793296 0.124436
0.301351 0.793801 0.126456
0.363250 0.794306 0.128475
0.425150 0.794811 0.130495
0.487050 0.795316 0.132515
0.548949 0.795821 0.134534
0.610849 0.796326 0.136554
0.672749 0.796831 0.138574
0.734648 0.797336 0.140594
0.796548 0.797841 0.142613
0.858448 0.798346 0.144633
0.920347 0.798851 0.146653
0.980000 0.799356 0.148672
0.980000 0.799861 0.150692
0.062245 0.843949 0.125171
0.124145 0.844454 0.127191
0.186045 0.844959 0.129211
0.247944 0.845464 0.131230
0.309844 0.845969 0.133250
0.371744 0.846474 0.135270
0.433643 0.846979 0.137290
0.495543 0.847484 0.139309
0.557442 0.847988 0.141329
0.619342 0.848493 0.143349
0.681242 0.848998 0.145368
0.743141 0.849503 0.147388
0.805041 0.850008 0.149408
0.866940 0.850513 0.151427
0.928840 0.851018 0.153447
0.980000 0.851523 0.155467
0.980000 0.852028 0.157487
0.030000 0.030000 0.284428
0.048745 0.030000 0.280641
0.109382 0.030000 0.276854
0.170019 0.030000 0.273067
0.230657 0.030000 0.269280
0.291294 0.030000 0.265493
0.351931 0.030000 0.261706
0.412569 0.030000 0.257919
0.473206 0.030000 0.254132
0.533843 0.030000 0.250345
0.594480 0.030000 0.246559
0.655118 0.030000 0.242772
0.715755 0.030000 0.238985
0.776392 0.030000 0.235198
0.837030 0.030000 0.231411
0.897667 0.030000 0.227624
0.958304 0.030000 0.223837
0.030000 0.080469 0.271688
0.052991 0.080469 0.267901
0.113628 0.080469 0.264114
0.174266 0.080469 0.260328
0.234903 0.080469 0.256541
0.295540 0.080469 0.252754
0.356178 0.080469 0.248967
0.416815 0.080469 0.245180
0.477452 0.080469 0.241393
0.538090 0.080469 0.237606
0.598727 0.080469 0.233819
0.659364 0.080469 0.230032
0.720002 0.080469 0.226245
0.780639 0.080469 0.222458
0.841276 0.080469 0.218671
0.901914 0.080469 0.214884
0.962551 0.080469 0.211097
0.030000 0.130937 0.258949
0.057238 0.130937 0.255162
0.117875 0.130937 0.251375
0.178512 0.130937 0.247588
0.239150 0.130937 0.243801
0.299787 0.130937 0.240014
0.360424 0.130937 0.236227
0.421062 0.130937 0.232440
0.481699 0.130937 0.228653
0.542336 0.130937 0.224866
0.602973 0.130937 0.221080
0.663611 0.130937 0.217293
0.724248 0.130937 0.213506
0.784885 0.130937 0.209719
0.845523 0.130937 0.205932
0.906160 0.130937 0.202145
0.966797 0.130937 0.198358
0.030000 0.181406 0.246209
0.061484 0.181406 0.242422
0.122121 0.181406 0.238636
0.182759 0.181406 0.234849
0.243396 0.181406 0.231062
0.304033 0.181406 0.227275
0.364671 0.181406 0.223488
0.425308 0.181406 0.219701
0.485945 0.181406 0.215914
0.546583 0.181406 0.212127
0.607220 0.181406 0.208340
0.667857 0.181406 0.204553
0.728495 0.181406 0.200766
0.789132 0.181406 0.196979
0.849769 0.181406 0.193192
0.910407 0.181406 0.189405
0.971044 0.181406 0.185618
0.030000 0.231875 0.233470
0.065731 0.231875 0.229683
0.126368 0.231875 0.225896
0.187005 0.231875 0.222109
0.247643 0.231875 0.218322
0.308280 0.231875 0.214535
0.368917 0.231875 0.210748
0.429555 0.231875 0.206961
0.490192 0.231875 0.203174
0.550829 0.231875 0.199387
0.611467 0.231875 0.195600
0.672104 0.231875 0.191814
0.732741 0.231875 0.188027
0.793378 0.231875 0.184240
0.854016 0.231875 0.180453
0.914653 0.231875 0.176666
0.975290 0.231875 0.172879
0.030000 0.282344 0.220730
0.069977 0.282344 0.216943
0.130614 0.282344 0.213156
0.191252 0.282344 0.209370
0.251889 0.282344 0.205583
0.312526 0.282344 0.201796
0.373164 0.282344 0.198009
0.433801 0.282344 0.194222
0.494438 0.282344 0.190435
0.555076 0.282344 0.186648
0.615713 0.282344 0.182861
0.676350 0.282344 0.179074
0.736988 0.282344 0.175287
0.797625 0.282344 0.171500
0.858262 0.282344 0.167713
0.918900 0.282344 0.163926
0.979537 0.282344 0.160139
0.030000 0.332812 0.207991
0.074224 0.332812 0.204204
0.134861 0.332812 0.200417
0.195498 0.332812 0.196630
0.256136 0.332812 0.192843
0.316773 0.332812 0.189056
0.377410 0.332812 0.185269
0.438048 0.332812 0.181482
0.498685 0.332812 0.177695
0.559322 0.332812 0.173908
0.619959 0.332812 0.170122
0.680597 0.332812 0.166335
0.741234 0.332812 0.162548
0.801871 0.332812 0.158761
0.861250 0.332812 0.158750
0.920625 0.332812 0.158750
0.980000 0.332812 0.158750
0.030000 0.383281 0.195251
0.078470 0.383281 0.191464
0.139107 0.383281 0.187677
0.199745 0.383281 0.183891
0.260382 0.383281 0.180104
0.321019 0.383281 0.176317
0.381657 0.383281 0.172530
0.442294 0.383281 0.168743
0.502931 0.383281 0.164956
0.563569 0.383281 0.161169
0.623750 0.383281 0.158750
0.683125 0.383281 0.158750
0.742500 0.383281 0.158750
0.801875 0.383281 0.158750
0.861250 0.383281 0.158750
0.920625 0.383281 0.158750
0.980000 0.383281 0.158750
0.030000 0.433750 0.182512
0.082717 0.433750 0.178725
0.143354 0.433750 0.174938
0.203991 0.433750 0.171151
0.264629 0.433750 0.167364
0.325266 0.433750 0.163577
0.385903 0.433750 0.159790
0.445625 0.433750 0.158750
0.505000 0.433750 0.158750
0.564375 0.433750 0.158750
0.623750 0.433750 0.158750
0.683125 0.433750 0.158750
0.742500 0.433750 0.158750
0.801875 0.433750 0.158750
0.861754 0.433851 0.159153
0.923653 0.434356 0.161172
0.980000 0.434861 0.163192
0.030000 0.484219 0.169772
0.086963 0.484219 0.165985
0.147600 0.484219 0.162198
0.208125 0.484219 0.158750
0.267500 0.484219 0.158750
0.326875 0.484219 0.158750
0.386250 0.484219 0.158750
0.445625 0.484219 0.158750
0.505000 0.484219 0.158750
0.564375 0.484219 0.158750
0.623750 0.484219 0.158750
0.684548 0.484503 0.159888
0.746447 0.485008 0.161908
0.808347 0.485513 0.163927
0.870246 0.486018 0.165947
0.932146 0.486523 0.167967
0.980000 0.487028 0.169987
0.030000 0.534687 0.158750
0.089375 0.534687 0.158750
0.148750 0.534687 0.158750
0.208125 0.534687 0.158750
0.267500 0.534687 0.158750
0.326875 0.534687 0.158750
0.386250 0.534687 0.158750
0.445625 0.534687 0.158750
0.507342 0.535156 0.160623
0.569241 0.535661 0.162643
0.631141 0.536166 0.164663
0.693041 0.536671 0.166682
0.754940 0.537176 0.168702
0.816840 0.537680 0.170722
0.878739 0.538185 0.172742
0.940639 0.538690 0.174761
0.980000 0.539195 0.176781
0.030000 0.585156 0.158750
0.089375 0.585156 0.158750
0.148750 0.585156 0.158750
0.208125 0.585156 0.158750
0.268236 0.585303 0.159339
0.330136 0.585808 0.161359
0.392035 0.586313 0.163378
0.453935 0.586818 0.165398
0.515835 0.587323 0.167418
0.577734 0.587828 0.169437
0.639634 0.588333 0.171457
0.701534 0.588838 0.173477
0.763433 0.589343 0.175497
0.825333 0.589848 0.177516
0.887232 0.590353 0.179536
0.949132 0.590858 0.181556
0.980000 0.591363 0.183575
0.030000 0.635625 0.158750
0.091030 0.635956 0.160074
0.152930 0.636461 0.162094
0.214830 0.636966 0.164114
0.276729 0.637471 0.166133
0.338629 0.637976 0.168153
0.400528 0.638481 0.170173
0.462428 0.638986 0.172192
0.524328 0.639491 0.174212
0.586227 0.639995 0.176232
0.648127 0.640500 0.178252
0.710027 0.641005 0.180271
0.771926 0.641510 0.182291
0.833826 0.642015 0.184311
0.895725 0.642520 0.186330
0.957625 0.643025 0.188350
0.980000 0.643530 0.190370
0.037624 0.687618 0.164849
0.099523 0.688123 0.166869
0.161423 0.688628 0.168888
0.223323 0.689133 0.170908
0.285222 0.689638 0.172928
0.347122 0.690143 0.174947
0.409021 0.690648 0.176967
0.470921 0.691153 0.178987
0.532821 0.691658 0.181007
0.594720 0.692163 0.183026
0.656620 0.692668 0.185046
0.718520 0.693173 0.187066
0.780419 0.693678 0.189085
0.842319 0.694183 0.191105
0.904218 0.694687 0.193125
0.966118 0.695192 0.195144
0.980000 0.695697 0.197164
0.046117 0.739786 0.171643
0.108016 0.740291 0.173663
0.169916 0.740796 0.175683
0.231816 0.741301 0.177702
0.293715 0.741806 0.179722
0.355615 0.742310 0.181742
0.417515 0.742815 0.183762
0.479414 0.743320 0.185781
0.541314 0.743825 0.187801
0.603213 0.744330 0.189821
0.665113 0.744835 0.191840
0.727013 0.745340 0.193860
0.788912 0.745845 0.195880
0.850812 0.746350 0.197899
0.912711 0.746855 0.199919
0.974611 0.747360 0.201939
0.980000 0.747865 0.203959
0.054610 0.791953 0.178438
0.116509 0.792458 0.180457
0.178409 0.792963 0.182477
0.240309 0.793468 0.184497
0.302208 0.793973 0.186517
0.364108 0.794478 0.188536
0.426007 0.794983 0.190556
0.487907 0.795488 0.192576
0.549807 0.795993 0.194595
0.611706 0.796498 0.196615
0.673606 0.797002 0.198635
0.735506 0.797507 0.200654
0.797405 0.798012 0.202674
0.859305 0.798517 0.204694
0.921204 0.799022 0.206714
0.980000 0.799527 0.208733
0.980000 0.800032 0.210753
0.063103 0.844121 0.185232
0.125002 0.844625 0.187252
0.186902 0.845130 0.189272
0.248802 0.845635 0.191291
0.310701 0.846140 0.193311
0.372601 0.846645 0.195331
0.434500 0.847150 0.197350
0.496400 0.847655 0.199370
0.558300 0.848160 0.201390
0.620199 0.848665 0.203409
0.682099 0.849170 0.205429
0.743999 0.849675 0.207449
0.805898 0.850180 0.209469
0.867798 0.850685 0.211488
0.929697 0.851190 0.213508
0.980000 0.851694 0.215528
0.980000 0.852199 0.217547
0.030000 0.030000 0.342517
0.049173 0.030000 0.338730
0.109811 0.030000 0.334943
0.170448 0.030000 0.331156
0.231085 0.030000 0.327369
0.291723 0.030000 0.323582
0.352360 0.030000 0.319795
0.412997 0.030000 0.316008
0.473635 0.030000 0.312221
0.534272 0.030000 0.308434
0.594909 0.030000 0.304647
0.655547 0.030000 0.300860
0.716184 0.030000 0.297074
0.776821 0.030000 0.293287
0.837458 0.030000 0.289500
0.898096 0.030000 0.285713
0.958733 0.030000 0.281926
0.030000 0.080469 0.329777
